!!!COM: Beethoven, Ludwig van
!!!CDT: 1770///-1827///
!!!ODT: 1823///-1824///
!!!OTL: String Quartet No. 12 in E-flat Major, Op. 127
!!!OPS: Op. 127
!!!OMV: Mvmt. 4
!!!OMD: Finale - Allegro con moto
!!!PDT: 1826
!!!PPP: Mainz
!!!PPR: B. Schott S&ouml;hne
!!!ODE: Dem F&uuml;rsten Nicolaus von Galitzin gewidmet
!!!MPD: 1825/03/06
**kern	**dynam	**kern	**dynam	**kern	**dynam	**kern	**dynam
*staff4	*staff4	*staff3	*staff3	*staff2	*staff2	*staff1	*staff1
*Icello	*Icello	*Iviola	*Iviola	*Ivioln	*Ivioln	*Ivioln	*Ivioln
*clefF4	*clefF4	*clefC3	*clefC3	*clefG2	*clefG2	*clefG2	*clefG2
*k[b-e-a-]	*k[b-e-a-]	*k[b-e-a-]	*k[b-e-a-]	*k[b-e-a-]	*k[b-e-a-]	*k[b-e-a-]	*k[b-e-a-]
*E-:	*E-:	*E-:	*E-:	*E-:	*E-:	*E-:	*E-:
*M2/2	*M2/2	*M2/2	*M2/2	*M2/2	*M2/2	*M2/2	*M2/2
*MM154	*MM154	*MM154	*MM154	*MM154	*MM154	*MM154	*MM154
=850-	=850-	=850-	=850-	=850-	=850-	=850-	=850-
4GG	f	4G	f	4G 4g	f	4G 4g	f
4G	.	4G	.	4g	.	4gg	.
[2A-	.	[2A-	.	[2a-	.	[2aa-	.
=851	=851	=851	=851	=851	=851	=851	=851
(4A-]	p	(4A-]	p	(4a-]	p	(4aa-]	p
4F	.	4F	.	4f	.	4ff	.
4D	.	4D	.	4d	.	4dd	.
4E-	.	4E-	.	4e-	.	4ee-	.
=852	=852	=852	=852	=852	=852	=852	=852
4BB	.	4B	.	4B	.	4b	.
4C	.	4c	.	4c	.	4cc	.
4AA	.	4A	.	4A	.	4a	.
4BB-	.	4B-	.	4B-	.	4b-	.
=853	=853	=853	=853	=853	=853	=853	=853
4GG	.	4G	.	4G	.	4g	.
4AA-	.	4A-	.	4A-	.	4a-	.
4FF	.	4F	.	4f	.	4f	.
4BB-)	.	4B-)	.	[4B-)	.	4b-)	.
=854	=854	=854	=854	=854	=854	=854	=854
(2EE-	.	[1E-	.	1B-_	.	(8e-	p
.	.	.	.	.	.	8b-	.
.	.	.	.	.	.	8g	.
.	.	.	.	.	.	8e-	.
2FF	.	.	.	.	.	2a-)	.
=855	=855	=855	=855	=855	=855	=855	=855
2EE-	.	1E-_	.	1B-_	.	(8e-	.
.	.	.	.	.	.	8b-	.
.	.	.	.	.	.	8g	.
.	.	.	.	.	.	8e-	.
2FF)	.	.	.	.	.	2a-)	.
=856	=856	=856	=856	=856	=856	=856	=856
2EE-	.	(2E-]	.	(2B-]	.	(8e-	.
.	.	.	.	.	.	8b-	.
.	.	.	.	.	.	8g	.
.	.	.	.	.	.	8e-	.
[2FF	.	[2E-)	.	[2B-)	.	2a)	.
=857	=857	=857	=857	=857	=857	=857	=857
1FF]	.	(2.E-]	.	2.B-]	.	4b-	.
.	.	.	.	.	.	4cc	.
.	.	.	.	.	.	4a-	.
.	.	4D	.	(8B-	.	4f	.
.	.	.	.	8A-	.	.	.
=858	=858	=858	=858	=858	=858	=858	=858
(2GG	.	4E-	.	4G)	.	4e-	.
.	.	4F	.	&([2.B-&)	.	4d	.
2AA-	.	4E-	.	.	.	4c	.
.	.	4D	.	.	.	4B-	.
=859	=859	=859	=859	=859	=859	=859	=859
2GG	.	4E-	.	(2B-]	.	4c	.
.	.	4F	.	.	.	4d	.
2FF)	.	4G	.	4c	.	4e-	.
.	.	4A-	.	4d	.	4f	.
=860	=860	=860	=860	=860	=860	=860	=860
(4EE-	.	4G	.	4B- 4e-	.	4g	.
4CC	.	4E-	.	4g	.	4b-	.
4DD	.	4F	.	4f	.	4a-	.
4EE-	.	4G	.	4e-)	.	&(4g&)	.
=861	=861	=861	=861	=861	=861	=861	=861
4BB-	.	4G	.	(2e-	.	(4g	.
4AA	.	4c	.	.	.	4f)	.
4BB-)	.	4B-	.	4d)	.	4f	.
(4DD	.	4F)	.	(4A-	.	4r	.
=862	=862	=862	=862	=862	=862	=862	=862
2EE-)	.	&([1E-&)	.	4G	.	(8e-	p
.	.	.	.	.	.	8b-	.
.	.	.	.	[2.B-)	.	8g	.
.	.	.	.	.	.	8e-	.
2FF	.	.	.	.	.	2a-)	.
=863	=863	=863	=863	=863	=863	=863	=863
2EE-	.	1E-_	.	1B-_	.	(8e-	.
.	.	.	.	.	.	8b-	.
.	.	.	.	.	.	8g	.
.	.	.	.	.	.	8e-	.
2FF	.	.	.	.	.	2a-)	.
=864	=864	=864	=864	=864	=864	=864	=864
&(2EE-&)	.	(2E-]	.	(2B-]	.	(8e-	.
.	.	.	.	.	.	8b-	.
.	.	.	.	.	.	8g	.
.	.	.	.	.	.	8e-	.
[2FF	.	[2E-)	.	[2B-)	.	2a)	.
=865	=865	=865	=865	=865	=865	=865	=865
1FF]	.	(2.E-]	.	2.B-]	.	4b-	.
.	.	.	.	.	.	4cc	.
.	.	.	.	.	.	4a-	.
.	.	4D	.	(8B-	.	4f	.
.	.	.	.	8A-	.	.	.
=866	=866	=866	=866	=866	=866	=866	=866
(2GG	.	4E-	.	4G)	.	4e-	.
.	.	4F	.	&([2.B-&)	.	4d	.
2AA-	.	4E-	.	.	.	4c	.
.	.	4D	.	.	.	4B-	.
=867	=867	=867	=867	=867	=867	=867	=867
2GG	.	4E-	.	(2B-]	.	4c	.
.	.	4F	.	.	.	4d	.
2FF	.	4G	.	4c	.	4e-	.
.	.	4A-	.	4d	.	4f	.
=868	=868	=868	=868	=868	=868	=868	=868
4EE-	.	4B-	.	2.e-	.	4g	.
4DD-	.	4G	.	.	.	4b-	.
4CC	.	4E-	.	.	.	4a-	.
4DD)	.	4F	.	8B-	.	&(4f&)	.
.	.	.	.	8A-)	.	.	.
=869	=869	=869	=869	=869	=869	=869	=869
(4EE-	.	4D	.	(4A-	.	(4f	.
4BB-	.	4E-)	.	4G)	.	4e-)	.
4E-)	.	4E-	.	4G	.	4e-	.
4r	.	4r	.	4r	.	(4b-	.
=870	=870	=870	=870	=870	=870	=870	=870
2r	.	2r	.	1r	.	4ee-	.
.	.	.	.	.	.	4dd	.
4r	.	4r	.	.	.	4ee-	.
(4B-	.	4e-	.	.	.	4gg	.
=871	=871	=871	=871	=871	=871	=871	=871
4c	.	(4e-	.	2r	.	4b-	.
4d	.	4f	.	.	.	4a-	.
4e-)	.	4g)	.	4r	.	4g)	.
4e-	.	4g	.	4cc	.	4ee-	.
=872	=872	=872	=872	=872	=872	=872	=872
4f	f	(4a	f	4cc	f	4ee-	f
4r	.	4A)	.	4e-)	.	4cc)	.
4F	.	(4f	.	4d	.	4b-	.
4r	.	4e-)	.	4c)	.	4a)	.
=873	=873	=873	=873	=873	=873	=873	=873
(4F	.	(4A	.	4e-	.	4cc	.
4B-)	.	4B-)	.	4d)	.	4b-)	.
4B-	.	4B-	.	4d	.	4b-	.
4r	.	4r	.	4r	.	(4b-	p
=874	=874	=874	=874	=874	=874	=874	=874
2r	.	2r	.	2r	.	4ee-	.
.	.	.	.	.	.	4dd	.
4r	.	4r	.	4r	.	4ee-	.
(4B-	p	4e-	p	(4g	p	4gg	.
=875	=875	=875	=875	=875	=875	=875	=875
4c	.	(4e-	.	4a-	.	4b-	.
4d	.	4f	.	4b-)	.	4a-	.
4e-)	.	4g)	.	4b-	.	4g)	.
4C	.	4E-	.	4a-	.	4ee-	.
=876	=876	=876	=876	=876	=876	=876	=876
4C	f	4E-	f	4a-	f	4ee-	f
4r	.	4r	.	4r	.	4cc)	.
(4C	.	(4E-	.	4g	.	4b-	.
4D)	.	4F)	.	4f)	.	4a-)	.
=877	=877	=877	=877	=877	=877	=877	=877
(4E-	.	(4G	.	(4e-	.	(4g	.
4BB-	.	4F	.	4d	.	8a-	.
.	.	.	.	.	.	8f	.
4E-)	.	4G)	.	4e-)	.	4e-)	.
4r	.	(4B-	p	[4g	p	4r	.
=878	=878	=878	=878	=878	=878	=878	=878
1r	.	4e-	.	(4g]	.	2r	.
.	.	4d	.	4f	.	.	.
.	.	4e-	.	4g	.	4r	.
.	.	4g	.	4b-	.	([4ee-	p
=879	=879	=879	=879	=879	=879	=879	=879
2r	.	4B-	.	4g	.	4ee-]	.
.	.	4A-	.	4f	.	4dd	.
4r	.	4G)	.	4e-)	.	4ee-)	.
4E-	.	(8E-	.	(8g	.	(8gg	.
.	.	8F	.	8a-	.	8aa-	.
=880	=880	=880	=880	=880	=880	=880	=880
4E-	f	4G)	f	4b-)	f	4bb-)	f
4C)	.	(8A-	.	(8cc	.	(8ccc	.
.	.	8B-	.	8dd	.	8ddd	.
4BB-	.	4c)	.	4ee-)	.	4eee-)	.
4AA)	.	(8d	.	(8ff	.	(8fff	.
.	.	8e-)	.	8gg)	.	8ggg)	.
=881	=881	=881	=881	=881	=881	=881	=881
4C	.	(4e-	.	(4gg	.	(4ggg	.
4BB-)	.	4f)	.	4aa-)	.	4aaa-)	.
4BB-	.	4d	.	4ff	.	4fff	.
(4A-	p	(4B-	p	(4d 4f	p	4r	.
=882	=882	=882	=882	=882	=882	=882	=882
4G	.	4e-	.	4g	.	2r	.
4F	.	4d	.	4f	.	.	.
4G	.	4e-	.	4g	.	4r	.
4B-	.	4g	.	4b-	.	(4ee-	p
=883	=883	=883	=883	=883	=883	=883	=883
4C	.	4B-	.	4c	.	4b-	.
4D	.	4A-	.	4d	.	4a-	.
4E-)	.	4G)	.	4e-)	.	4g)	.
4E-	.	(8E-	.	(8G	.	(8g	.
.	.	8F	.	8A-	.	8a-	.
=884	=884	=884	=884	=884	=884	=884	=884
4E-	f	4G)	f	4B-)	f	4b-)	f
4C)	.	(8c	.	(8e-	.	(8ee-	.
.	.	8d	.	8f	.	8ff	.
4BB-	.	4e-)	.	4g)	.	4gg)	.
4AA-)	.	(8e-	.	(8g	.	(8gg	.
.	.	8f	.	8a-	.	8aa-	.
=885	=885	=885	=885	=885	=885	=885	=885
(4GG	.	4g)	.	4b-)	.	4bb-)	.
8AA-	.	(8e-	.	(8cc	.	(8ccc	.
8FF	.	8A-	.	8dd	.	8ddd	.
4EE-)	.	4G)	.	4ee-)	.	4eee-)	.
(8AA-	.	(8E-	.	(8c	.	4eee-	.
8FF)	.	8F)	.	8d)	.	.	.
=886	=886	=886	=886	=886	=886	=886	=886
(8EE-	pp	(2G	pp	(2e-	pp	(4eee-	pp
8BB-	.	.	.	.	.	.	.
8GG	.	.	.	.	.	[2.bb-)	.
8EE-	.	.	.	.	.	.	.
2AA-)	.	2F	.	8d	.	.	.
.	.	.	.	8f	.	.	.
.	.	.	.	8d	.	.	.
.	.	.	.	8B-)	.	.	.
=887	=887	=887	=887	=887	=887	=887	=887
(8EE-	.	2E-	.	(4g	.	1bb-_	.
8BB-	.	.	.	.	.	.	.
8GG	.	.	.	4e-	.	.	.
8EE-	.	.	.	.	.	.	.
2AA-)	.	2F)	.	8d	.	.	.
.	.	.	.	8f	.	.	.
.	.	.	.	8d	.	.	.
.	.	.	.	8B-)	.	.	.
=888	=888	=888	=888	=888	=888	=888	=888
(8EE-	.	1E-	.	(4g	.	(4bb-]	.
8BB-	.	.	.	.	.	.	.
8GG	.	.	.	[4e-)	.	4eee-	.
8EE-	.	.	.	.	.	.	.
2AA)	.	.	.	(8e-]	.	2ccc)	.
.	.	.	.	8g-	.	.	.
.	.	.	.	8f	.	.	.
.	.	.	.	8e-)	.	.	.
=889	=889	=889	=889	=889	=889	=889	=889
(4BB-	.	(8c	.	(8e-	.	4ff	.
.	.	8B-)	.	8d	.	.	.
4C	.	8D	.	8f	.	4ff	.
.	.	8D	.	8d	.	.	.
4AA-	.	(8E-	.	8c	.	4bb-	.
.	.	8D	.	8B-	.	.	.
4FF	.	8E-	.	8c	.	[4bb-	.
.	.	8F)	.	8d)	.	.	.
=890	=890	=890	=890	=890	=890	=890	=890
2EE-)	.	(8G	.	(4e-	.	(4bb-]	.
.	.	8B-	.	.	.	.	.
.	.	8G	.	[2.b-)	.	4ee-	.
.	.	8E-	.	.	.	.	.
(8DD	.	2A-)	.	.	.	4ff	.
8BB-	.	.	.	.	.	.	.
8FF	.	.	.	.	.	4b-)	.
8DD	.	.	.	.	.	.	.
=891	=891	=891	=891	=891	=891	=891	=891
2EE-)	.	(8G	.	1b-_	.	4r	.
.	.	8B-	.	.	.	.	.
.	.	8G	.	.	.	(4eee-	.
.	.	8E-	.	.	.	.	.
(8DD	.	2A-)	.	.	.	4fff	.
8BB-	.	.	.	.	.	.	.
8FF	.	.	.	.	.	4bb-)	.
8DD	.	.	.	.	.	.	.
=892	=892	=892	=892	=892	=892	=892	=892
2EE-)	.	(8E-	.	(2b-]	.	4ggg	.
.	.	8B-	.	.	.	.	.
.	.	8G	.	.	.	4eee-	.
.	.	8E-	.	.	.	.	.
8DD	.	2A)	.	2cc)	.	4ccc	.
(8GG-	.	.	.	.	.	.	.
8FF	.	.	.	.	.	4fff	.
8EE-	.	.	.	.	.	.	.
=893	=893	=893	=893	=893	=893	=893	=893
4DD	.	(4B-	.	(4dd	.	(4fff	.
4CC)	.	4c	.	4ee-	.	4eee-)	.
4FF	.	4A	.	4cc	.	4eee-	.
4F	.	4F)	.	4a)	.	4eee-	.
=894	=894	=894	=894	=894	=894	=894	=894
[1F	.	(8F	.	(8B-	.	4ddd	.
.	.	8d	.	8f	.	.	.
.	.	8B-	.	8d	.	4r	.
.	.	8F	.	8B-	.	.	.
.	.	8E-	.	2e-)	.	(8g	.
.	.	8F	.	.	.	8cc	.
.	.	8E-	.	.	.	8a	.
.	.	8F)	.	.	.	8f	.
=895	=895	=895	=895	=895	=895	=895	=895
1F_	.	(8F	.	(8B-	.	4dd	.
.	.	8d	.	8f	.	.	.
.	.	8B-	.	8d	.	4b-	.
.	.	8F	.	8B-	.	.	.
.	.	8E-	.	2e-)	.	8g	.
.	.	8F	.	.	.	8cc	.
.	.	8E-	.	.	.	8a	.
.	.	8F)	.	.	.	8f	.
=896	=896	=896	=896	=896	=896	=896	=896
1F]	.	(8F	.	(8B-	.	4dd)	.
.	.	8d	.	8f	.	.	.
.	.	8B-	.	8d	.	(8ff	.
.	.	8F	.	8B-	.	8dd	.
.	.	8B-	.	2e)	.	8dd-	.
.	.	8A	.	.	.	8cc	.
.	.	8B-)	.	.	.	8dd-	.
.	.	8G	.	.	.	8b-	.
=897	=897	=897	=897	=897	=897	=897	=897
4F	.	4F	.	(4f	.	8b-	.
.	.	.	.	.	.	8a	.
2f	.	4r	.	4g	.	8b-	.
.	.	.	.	.	.	8cc	.
.	.	2r	.	4e-	.	8g	.
.	.	.	.	.	.	8f	.
[4f	.	.	.	4c)	.	8g	.
.	.	.	.	.	.	8a)	.
=898	=898	=898	=898	=898	=898	=898	=898
(4f]	.	2r	.	(8d	.	(8b-	.
.	.	.	.	8dd	.	8ff	.
4B-	.	.	.	8f	.	8dd	.
.	.	.	.	8d	.	8b-	.
8A	.	(8f	.	2cc)	.	2ee-)	.
8f	.	8cc	.	.	.	.	.
8c	.	8a	.	.	.	.	.
8A)	.	8f	.	.	.	.	.
=899	=899	=899	=899	=899	=899	=899	=899
(4f	.	4dd)	.	(8d	.	(8b-	.
.	.	.	.	8dd	.	8ff	.
4B-	.	4r	.	8f	.	8dd	.
.	.	.	.	8d	.	8b-	.
8A	.	(8f	.	2cc)	.	2ee-)	.
8f	.	8cc	.	.	.	.	.
8c	.	8a	.	.	.	.	.
8A)	.	8f)	.	.	.	.	.
=900	=900	=900	=900	=900	=900	=900	=900
(4f	.	(8dd	.	(8d	.	(8b-	.
.	.	8b-	.	8dd	.	8ff	.
[4B-)	.	8f	.	8b-	.	8dd	.
.	.	8d	.	8f	.	8b-	.
(8B-]	.	2g)	.	2dd-)	.	2ee	.
8d-	.	.	.	.	.	.	.
8c	.	.	.	.	.	.	.
8B-	.	.	.	.	.	.	.
=901	=901	=901	=901	=901	=901	=901	=901
8A	.	2c	.	2cc	.	2ff	.
8c	.	.	.	.	.	.	.
8B-	.	.	.	.	.	.	.
8A	.	.	.	.	.	.	.
8A-	.	[2cc	.	[2c	.	2ff#)	.
8G)	.	.	.	.	.	.	.
8A-	.	.	.	.	.	.	.
8A-	.	.	.	.	.	.	.
=902	=902	=902	=902	=902	=902	=902	=902
(4A-	.	(4cc]	.	(4c]	.	(4ff#	.
4G	.	&(4b&)	.	4d	.	4gg	.
4C	.	4cc	.	4g	.	4ee-	.
4E-)	.	4g)	.	4e-)	.	4cc)	.
=903	=903	=903	=903	=903	=903	=903	=903
(4F	.	(4d	.	(4b-	.	(4dd	.
4FF	.	4c	.	4a	.	4ee-	.
4F)	.	4e-	.	4g-	.	4cc	.
4F	.	4c)	.	8f	.	8a	.
.	.	.	.	8e-)	.	8aa)	.
=904	=904	=904	=904	=904	=904	=904	=904
4BB-	f	4B-	f	4d	f	4bb-	f
4e-	.	4b-	.	4gg	.	4bb-	.
4d	.	4b-	.	4ff	.	4bb-	.
4c	.	4cc	.	4ee-	.	4bb-	.
=905	=905	=905	=905	=905	=905	=905	=905
4B-	.	4dd	.	4dd	.	(4bb-	.
4A	.	4f	.	4cc	.	8ccc	.
.	.	.	.	.	.	8ddd	.
4G	.	4b-	.	4b-	.	4eee-)	.
4F	.	4B-	.	4b-	.	4ddd	.
=906	=906	=906	=906	=906	=906	=906	=906
4E-	f	4B-	f	4b-	f	4ggg	f
4D	.	4B	.	4b	.	4fff	.
4C	f	4c	f	4cc	f	4eee-	f
4BB-	.	(8d	.	(8dd	.	4ddd	.
.	.	8e)	.	8ee)	.	.	.
=907	=907	=907	=907	=907	=907	=907	=907
4AA	f	4f	f	4ff	f	4ccc	f
4GG	.	4g	.	4gg	.	4bb-	.
4FF	f	4a	f	4aa	f	4ccc	f
4e-	.	(8b-	.	(8gg	.	4ff	.
.	.	8cc)	.	8aa)	.	.	.
=908	=908	=908	=908	=908	=908	=908	=908
4d	.	4b-	.	4ff	.	4bb-	.
4e-	.	4g	.	4gg	.	4bb-	.
4d	.	4f	.	4ff	.	4bb-	.
4c	.	4e-	.	4ee-	.	4bb-	.
=909	=909	=909	=909	=909	=909	=909	=909
4B-	.	4d	.	4dd	.	(4bb-	.
4A	.	4c	.	4cc	.	8ccc	.
.	.	.	.	.	.	8ddd	.
4G	.	4B-	.	4b-	.	4eee-)	.
4F	.	4B-	.	4b-	.	4ddd	.
=910	=910	=910	=910	=910	=910	=910	=910
4E-	.	4B-	.	4b-	.	4ggg	.
4D	.	4B	.	4b	.	4fff	.
4C	f	4c	f	4cc	f	4eee-	f
4BB-	.	4d	.	4dd	.	4ddd	.
=911	=911	=911	=911	=911	=911	=911	=911
4F	.	4f	.	4aa	f	4ccc	f
4r	.	4r	.	4gg	.	4bb-	.
2r	.	2r	.	4ff	f	4aa	f
.	.	.	.	4ee-	.	4gg	.
=912	=912	=912	=912	=912	=912	=912	=912
4d	.	4f	p	4dd	p	4ff	p
4c	.	4e-	.	4cc	.	4ee-	.
4B-	.	4d	.	4b-	.	4dd	.
4F	.	4c	.	4f	.	4cc	.
=913	=913	=913	=913	=913	=913	=913	=913
4D	.	4B-	.	4d	.	4b-	.
4r	.	4r	.	4f	.	4a	.
4r	.	2r	.	4e-	.	4g	.
4BB-	.	.	.	4d	.	4f	.
=914	=914	=914	=914	=914	=914	=914	=914
4BB-	f	4e-	f	4G	.	4gg	f
4BB	.	4d	.	4g	.	4ff	.
4C	f	4c	f	4g	f	4ee-	f
8D	.	4B-	.	4b-	.	4dd	.
8E	.	.	.	.	.	.	.
=915	=915	=915	=915	=915	=915	=915	=915
4F	f	4c	.	4a	f	4cc	f
4F	.	4d-	.	4e	.	4b-	.
4F	f	4c	f	4d	f	4a	f
4F	.	4d-	.	4B- 4e	.	4g	.
=916	=916	=916	=916	=916	=916	=916	=916
4D-	p	1r	.	1r	.	4d-	p
4D	.	.	.	.	.	4d	.
4BB-	.	.	.	.	.	4B-	.
4D	.	.	.	.	.	4d	.
=917	=917	=917	=917	=917	=917	=917	=917
4E-	.	2r	.	2r	.	4e-	.
4E	.	.	.	.	.	4e	.
2G	f	4G	f	4G 4g	.	2g	f
.	.	4g	.	4gg	.	.	.
=918	=918	=918	=918	=918	=918	=918	=918
4A-	p	1r	.	1r	.	4a-	p
4A	.	.	.	.	.	4a	.
4F	.	.	.	.	.	4f	.
4A	.	.	.	.	.	4a	.
=919	=919	=919	=919	=919	=919	=919	=919
4B-	.	2r	.	2r	.	4b-	.
4B	.	.	.	.	.	4b	.
2d	f	4D	f	4d	.	2dd	f
.	.	4d	.	4dd	.	.	.
=920	=920	=920	=920	=920	=920	=920	=920
4B	p	2r	.	2r	.	4b	p
4c	.	.	.	.	.	4cc	.
2e-	f	4E-	f	4e-	.	2ee-	f
.	.	4e-	.	4ee-	.	.	.
=921	=921	=921	=921	=921	=921	=921	=921
4c#	p	2r	.	2r	.	4cc#	p
4d	.	.	.	.	.	4dd	.
2f	f	4F	.	4f	f	2ff	f
.	.	4f	.	4ff	.	.	.
=922	=922	=922	=922	=922	=922	=922	=922
4BB	ff	4d#	ff	4dd#	.	1b- 1bb-	ff
4CC 4C	.	4G 4e	.	4ee	.	.	.
2CC 2C	.	2G 2e	.	2ee 2gg	.	.	.
=923	=923	=923	=923	=923	=923	=923	=923
4BB	.	4d#	.	4dd#	.	1b- 1bb-	.
4CC 4C	.	4G 4e	.	4ee	.	.	.
2CC 2C	.	2G 2e	.	2ee 2gg	.	.	.
=924	=924	=924	=924	=924	=924	=924	=924
4BB	.	4d#	.	4dd#	.	1b- 1bb-	.
4CC 4C	.	4G 4e	.	4ee	.	.	.
2CC 2C	.	2G 2e	.	2ee 2gg	.	.	.
=925	=925	=925	=925	=925	=925	=925	=925
(4DD	.	(4F	.	(4ff	.	(4bb-	.
4EE-	.	4G	.	8ff	.	8aa	.
.	.	.	.	8ee-	.	8gg	.
4FF)	.	4B-)	.	4dd)	.	4ff)	.
(8A	.	(8c	.	(8cc	.	(8ee-	.
8B-)	.	8d)	.	8b-)	.	8dd)	.
=926	=926	=926	=926	=926	=926	=926	=926
4CC 4GG	ff	4C 4G	.	4dd#	ff	4bb-	ff
4CC 4GG	.	4C 4G	.	4ee	.	(12ccc	.
.	.	.	.	.	.	12bb-	.
.	.	.	.	.	.	12aa)	.
2CC 2GG	.	2C 2G	.	2ee 2gg	.	4bb-	.
.	.	.	.	.	.	(12ccc	.
.	.	.	.	.	.	12bb-	.
.	.	.	.	.	.	12aa)	.
=927	=927	=927	=927	=927	=927	=927	=927
4CC 4GG	.	4C 4G	.	4dd#	.	4bb-	.
4CC 4GG	.	4C 4G	.	4ee	.	(12ccc	.
.	.	.	.	.	.	12bb-	.
.	.	.	.	.	.	12aa)	.
2CC 2GG	.	2C 2G	.	2ee 2gg	.	4bb-	.
.	.	.	.	.	.	(12ccc	.
.	.	.	.	.	.	12bb-	.
.	.	.	.	.	.	12aa)	.
=928	=928	=928	=928	=928	=928	=928	=928
4CC 4GG	.	4C 4G	.	4dd#	.	4bb-	.
4CC 4GG	.	4C 4G	.	4ee	.	(12ccc	.
.	.	.	.	.	.	12bb-	.
.	.	.	.	.	.	12aa)	.
2CC 2GG	.	2C 2G	.	2ee 2gg	.	4bb-	.
.	.	.	.	.	.	(12ccc	.
.	.	.	.	.	.	12bb-	.
.	.	.	.	.	.	12aa)	.
=929	=929	=929	=929	=929	=929	=929	=929
(4DD	.	(4F	.	4b-	.	(4bb-	.
4EE-	.	4G	.	(4b-	.	8aa	.
.	.	.	.	.	.	8gg	.
4FF)	.	4B-)	.	4dd)	.	4ff)	.
(8A	.	(8c	.	(8cc	.	(8ee-	.
8B-)	.	8d)	.	8b-)	.	8dd)	.
=930	=930	=930	=930	=930	=930	=930	=930
(8B	f	(8d	f	(8dd	f	(8ff	f
8c	.	8e-	.	8cc	.	8ee-	.
8d	.	8f	.	8b	.	8dd	.
8c)	.	8e-)	.	8cc)	.	8ee-)	.
4c	.	4e-	.	4cc	.	4ee-	.
4A	.	4c	.	4cc	.	4ee-	.
=931	=931	=931	=931	=931	=931	=931	=931
(8A	.	(8c	.	(8cc	.	(8ee-	.
8B-	.	8d	.	8b-	.	8dd	.
8c	.	8e-	.	8a	.	8cc	.
8B-)	.	8d)	.	8b-)	.	8dd)	.
4B-	.	4d	.	4b-	.	4dd	.
4G	p	4B-	p	4r	.	4r	.
=932	=932	=932	=932	=932	=932	=932	=932
(8F	.	(8A	.	1r	.	1r	.
8E-	.	8G	.	.	.	.	.
8D	.	8F	.	.	.	.	.
8E-)	.	8G)	.	.	.	.	.
4D	.	4F	.	.	.	.	.
4E-	.	4G	.	.	.	.	.
=933	=933	=933	=933	=933	=933	=933	=933
(8D	.	(8F	.	2r	.	2r	.
8C	.	8E-	.	.	.	.	.
8BB-	.	8D	.	.	.	.	.
8C)	.	8E-)	.	.	.	.	.
4BB-	.	4D	.	4r	.	4r	.
(8A	f	(8c	f	(8ee-	f	(8gg	f
8B-)	.	8d)	.	8dd)	.	8ff)	.
=934	=934	=934	=934	=934	=934	=934	=934
(8B	.	(8d	.	(8dd	.	(8ff	.
8c	.	8e-	.	8cc	.	8ee-	.
8d	.	8f	.	8b	.	8dd	.
8c)	.	8e-)	.	8cc)	.	8ee-)	.
4c	.	4e-	.	4cc	.	4ee-	.
4A	.	4c	.	4cc	.	4ee-	.
=935	=935	=935	=935	=935	=935	=935	=935
(8A	.	(8c	.	(8cc	.	(8ee-	.
8B-	.	8d	.	8b-	.	8dd	.
8c	.	8e-	.	8a	.	8cc	.
8B-)	.	8d)	.	8b-)	.	8dd)	.
4B-	.	4d	.	4b-	.	4dd	.
*clefC4	*clefC4	*	*	*	*	*	*
(8a-	p	(8cc	p	4r	.	4r	.
8g)	.	8b-)	.	.	.	.	.
=936	=936	=936	=936	=936	=936	=936	=936
(8g	.	(8b-	.	1r	.	1r	.
8f	.	8a-	.	.	.	.	.
8e)	.	8g	.	.	.	.	.
8f	.	8a-	.	.	.	.	.
4f	.	4a-)	.	.	.	.	.
4f	.	4a-	.	.	.	.	.
=937	=937	=937	=937	=937	=937	=937	=937
(8f	.	(8a-	.	2r	.	2r	.
8e-	.	8g	.	.	.	.	.
8d	.	8f	.	.	.	.	.
8e-)	.	8g)	.	.	.	.	.
4e-	.	4g	.	4r	.	4r	.
4r	.	4r	.	4ccc	p	4eee-	p
=938	=938	=938	=938	=938	=938	=938	=938
1r	.	1r	.	(8bb-	.	(8ddd	.
.	.	.	.	8aa-	.	8ccc	.
.	.	.	.	8gg	.	8bb-	.
.	.	.	.	8aa-)	.	8ccc)	.
.	.	.	.	4gg	.	4bb-	.
.	.	.	.	4aa-	.	4ccc	.
=939	=939	=939	=939	=939	=939	=939	=939
2r	.	2r	.	(8gg	.	(8bb-	.
.	.	.	.	8ff	.	8aa-	.
.	.	.	.	8ee-	.	8gg	.
.	.	.	.	8ff)	.	8aa-)	.
4r	.	4r	.	4ee-	.	4gg	.
4e-	p	4g	p	(8aa-	p	(8ccc	p
.	.	.	.	8gg)	.	8bb-)	.
=940	=940	=940	=940	=940	=940	=940	=940
(8c	.	(8e-	.	(8gg	.	(8bb-	.
8d)	.	8f)	.	8ff	.	8aa-	.
4r	.	4r	.	8ee	.	8gg	.
.	.	.	.	8ff)	.	8aa-)	.
2r	.	2r	.	4ff	.	4aa-	.
.	.	.	.	4ff	.	4aa-	.
=941	=941	=941	=941	=941	=941	=941	=941
(8d	.	(8f	.	(8ff	.	(8aa-	.
8e-)	.	8g)	.	8ee-	.	8gg	.
4r	.	4r	.	8dd	.	8ff#	.
.	.	.	.	8ee-)	.	8gg)	.
2r	.	2r	.	4ee-	.	4gg	.
.	.	.	.	4ee-	.	4gg	.
*clefF4	*clefF4	*	*	*	*	*	*
=942	=942	=942	=942	=942	=942	=942	=942
(8B	pp	(8e-	pp	(8ff	pp	(8aa-	pp
8e-)	.	8g)	.	8ee-	.	8gg	.
4r	.	4r	.	8dd	.	8ff#	.
.	.	.	.	8ee-)	.	8gg)	.
2r	.	2r	.	4ee-	.	4gg	.
.	.	.	.	4ee-	.	4gg	.
=943	=943	=943	=943	=943	=943	=943	=943
(8G	.	(8B	.	(8ff	.	(8aa-	.
8B)	.	8e-)	.	8ee-	.	8gg	.
4r	.	4r	.	8dd	.	8ff#	.
.	.	.	.	8ee-)	.	8gg)	.
2r	.	2r	.	4ee-	.	4gg	.
.	.	.	.	4ee-	.	4gg	.
=944	=944	=944	=944	=944	=944	=944	=944
(8E-	.	(8G	.	(8ff	.	(8aa-	.
8G)	.	8B)	.	8ee-	.	8gg	.
4r	.	4r	.	8dd	.	8ff#	.
.	.	.	.	8ee-)	.	8gg)	.
2r	.	2r	.	4ee-	.	4gg	.
.	.	.	.	4ee-	.	4gg	.
=945	=945	=945	=945	=945	=945	=945	=945
(8BB	.	(8E-	.	(8ff	.	(8aa-	.
8E-)	.	8G)	.	8ee-	.	8gg	.
4r	.	4r	.	8dd	.	8ff#	.
.	.	.	.	8ee-)	.	8gg)	.
(8C	.	(8E-	.	4ee-	.	4gg	.
8E-)	.	8G)	.	.	.	.	.
4r	.	4r	.	4ee-	.	4gg	.
=946	=946	=946	=946	=946	=946	=946	=946
4GG	f	4G 4g	f	4G 4g	f	4G 4g	f
4G	.	4g	.	4g	.	4gg	.
[2A-	.	[2a-	.	[2a-	.	[2aa-	.
=947	=947	=947	=947	=947	=947	=947	=947
(4A-]	p	(4a-]	p	(4a-]	p	(4aa-]	p
4F	.	4f	.	4f	.	4ff	.
4D	.	4d	.	4d	.	4dd	.
4E-	.	4e-	.	4e-	.	4ee-)	.
=948	=948	=948	=948	=948	=948	=948	=948
4BB	.	4B	.	4B	.	(4b	.
4C	.	4c	.	4c	.	4cc	.
4AA	.	4A	.	4A	.	4a	.
4BB-	.	4B-	.	4B-	.	4b-	.
=949	=949	=949	=949	=949	=949	=949	=949
4GG	.	4G	.	4G	.	4g	.
4AA-	.	4A-	.	4A-	.	4a-	.
4FF	.	4F	.	4f	.	4f	.
4BB-	.	4B-	.	4b-	.	4b-	.
=950	=950	=950	=950	=950	=950	=950	=950
4FF	.	4F	.	4f	.	4f	.
4GG	.	4G	.	4g	.	4g	.
[2EE-)	.	4E-	.	4e-)	.	4e-	.
.	.	4A-	.	4r	.	4ff	.
=951	=951	=951	=951	=951	=951	=951	=951
2EE-]	.	4A	.	2r	.	4cc	.
.	.	4B-	.	.	.	4dd-	.
[2E-	.	4G)	.	4r	.	4b-	.
.	.	4r	.	4g	.	4ee-	.
=952	=952	=952	=952	=952	=952	=952	=952
1E-_	.	2r	.	(4g	.	4b	.
.	.	.	.	4a-	.	4cc	.
.	.	4r	.	4c	.	4a-	.
.	.	(4B-	.	4g)	.	4dd-	.
=953	=953	=953	=953	=953	=953	=953	=953
2E-]	.	2.g	.	2d-	.	4a	.
.	.	.	.	.	.	4b-	.
2E	.	.	.	[2c	.	4g	.
.	.	4G	.	.	.	4cc	.
=954	=954	=954	=954	=954	=954	=954	=954
2.F	.	4B-	.	2.c]	.	4g	.
.	.	4c	.	.	.	4a-	.
.	.	4A-)	.	.	.	4f)	.
4F	.	(4dd-	.	[4ff	.	4aa-	.
=955	=955	=955	=955	=955	=955	=955	=955
4c	.	4b	.	(4ff]	.	(4aa-	.
4c	.	4cc)	.	4ee)	.	4gg)	.
4c	.	4cc	.	4ee	.	4gg	.
4c	.	4cc	.	4ee	.	4gg	.
=956	=956	=956	=956	=956	=956	=956	=956
4g	pp	4cc	pp	4ee	pp	4gg	pp
4g	.	4cc	.	4ee 4gg	.	4ccc	.
4g	.	4cc	.	4ee 4gg	.	4ccc	.
4g	.	4cc	.	4ee 4gg	.	4ccc	.
=957	=957	=957	=957	=957	=957	=957	=957
4g	.	4cc	.	4ee 4gg	.	(4ccc	.
4g	.	4cc	.	4ee 4gg	.	8ddd	.
.	.	.	.	.	.	8eee)	.
4g	.	4cc	.	4dd 4gg	.	4fff	.
4g	.	4cc	.	4cc 4gg	.	4eee	.
=958	=958	=958	=958	=958	=958	=958	=958
4g	.	4cc	.	4ff	.	4aaa	.
4g	.	4cc	.	4ee	.	4ggg	.
4g	.	4dd	.	4bb	.	4fff	.
4g	.	4cc	.	4ccc	.	4eee	.
=959	=959	=959	=959	=959	=959	=959	=959
4g	.	4dd	.	4bb	.	4ddd	.
4g	.	4a	.	4gg	.	4ccc	.
4g	.	4b	.	4gg	.	4ddd	.
4g	.	4dd	.	4gg	.	4gg	.
=960	=960	=960	=960	=960	=960	=960	=960
4CC	f	4C	.	4g 4ee-	f	4gg	f
4CC	.	4C	.	4g	.	4gg	.
4CC	.	4C	.	4f	f	4ff	f
4CC	.	4C	.	4e-	.	4ee-	.
=961	=961	=961	=961	=961	=961	=961	=961
(4CC	.	(4C	.	4d	f	4dd	f
8DD	.	8D	.	4c	.	4cc	.
8EE-)	.	8E-)	.	.	.	.	.
4FF	.	4F	.	4B	f	4b	f
4EE-	.	4E-	.	4c	.	4cc	.
=962	=962	=962	=962	=962	=962	=962	=962
4AA-	.	4A-	.	4c	.	4cc	.
4GG	.	4G	.	4cc	.	4ccc	.
4FF	f	4F	f	4cc	.	4ccc	.
4EE-	.	4E-	.	4cc	.	4ccc	.
=963	=963	=963	=963	=963	=963	=963	=963
4DD	f	4D	.	(4cc	.	(4ccc	.
4CC	.	4C	.	8dd	.	8ddd	.
.	.	.	.	8ee-)	.	8eee-	.
4BB	f	4D	f	4ff	.	4fff)	.
4C	.	4E-	.	4ee-	.	4eee-	.
=964	=964	=964	=964	=964	=964	=964	=964
4GG	.	4G	.	4ee-	.	4eee-	.
4G	.	4g	.	4dd	.	4ddd	.
4GG	.	4G	.	4cc	f	4ccc	f
4GG	.	4G	.	4b	.	4bb	.
=965	=965	=965	=965	=965	=965	=965	=965
(4GG	.	(4G	.	4a	f	4aa	f
8AA	.	8A	.	4g	.	4gg	.
8BB)	.	8B)	.	.	.	.	.
4C	.	4c	.	4f#	.	4ff#	.
4BB	ff	4B	ff	4g	ff	4gg	ff
=966	=966	=966	=966	=966	=966	=966	=966
4E-	.	4e-	.	4g	.	4gg	.
4D	.	4d	.	4g	.	4gg	.
4C	f	4c	f	4g	.	4gg	.
4BB	.	4B	.	4g	.	4gg	.
=967	=967	=967	=967	=967	=967	=967	=967
4AA	f	4A	f	(4g	.	(4gg	.
4GG	.	4G	.	8a	.	8aa	.
.	.	.	.	8b	.	8bb	.
4FF#	f	4F#	f	4cc)	.	4ccc)	.
4GG	.	4G	.	4b	.	4bb	.
=968	=968	=968	=968	=968	=968	=968	=968
4E-	.	4e-	.	(4b	.	(4bb	.
4D	.	4d	.	8cc	.	8ccc	.
.	.	.	.	8dd)	.	8ddd)	.
4C	f	4c	f	4ee-	.	4eee-	.
4BB	.	4B	.	4dd	.	4ddd	.
=969	=969	=969	=969	=969	=969	=969	=969
4AA-	f	4A-	f	(4dd	.	(4ddd	.
4GG	.	4G	.	8ee-	.	8eee-	.
.	.	.	.	8ff)	.	8fff)	.
4FF	f	4F	f	4gg	.	4ggg	.
4DD	.	4D	.	4B	.	4b	.
=970	=970	=970	=970	=970	=970	=970	=970
1r	.	(2e-	pp	4cc	pp	(8cc	pp
.	.	.	.	.	.	8gg	.
.	.	.	.	4cc	.	8ee-	.
.	.	.	.	.	.	8cc)	.
.	.	2f	.	4cc	.	2aa-	.
.	.	.	.	4cc	.	.	.
=971	=971	=971	=971	=971	=971	=971	=971
1r	.	2e-	.	(4cc	.	(8cc	.
.	.	.	.	.	.	8gg	.
.	.	.	.	8dd	.	8ee-	.
.	.	.	.	8ee-)	.	8cc)	.
.	.	2c)	.	4ff	.	2gg	.
.	.	.	.	4ee-	.	.	.
=972	=972	=972	=972	=972	=972	=972	=972
4G	pp	(8g	.	(2b	.	1r	.
.	.	8dd	.	.	.	.	.
4G	.	8b	.	.	.	.	.
.	.	8g	.	.	.	.	.
4G	.	2ee-)	.	2cc	.	.	.
4G	.	.	.	.	.	.	.
=973	=973	=973	=973	=973	=973	=973	=973
(4G	.	(8g	.	2b	.	4gg	pp
.	.	8dd	.	.	.	.	.
8A	.	8b	.	.	.	4gg	.
8B)	.	8g	.	.	.	.	.
4c	.	2dd)	.	2g)	.	4gg	.
4B	.	.	.	.	.	4gg	.
=974	=974	=974	=974	=974	=974	=974	=974
(2BB-	.	4ee	.	(8c	.	4ccc	.
.	.	.	.	8g	.	.	.
.	.	4g 4cc	.	8e	.	4ccc	.
.	.	.	.	8c	.	.	.
2C	.	4f 4cc	.	2a-)	.	4ccc	.
.	.	4f 4cc	.	.	.	4ccc	.
=975	=975	=975	=975	=975	=975	=975	=975
2BB-	.	4e 4cc	.	(8c	.	(4ccc	.
.	.	.	.	8g	.	.	.
.	.	4C 4c	.	8e	.	8ddd	.
.	.	.	.	8c	.	8eee)	.
2GG)	.	4C 4c	.	2g) 2b-	.	4fff	.
.	.	4C 4c	.	.	.	4eee	.
=976	=976	=976	=976	=976	=976	=976	=976
(8FF	f	4C 4c	.	4a-	f	4fff	f
8C	.	.	.	.	.	.	.
8AA-	.	4C 4c	.	4cc 4ff	.	4fff	.
8FF)	.	.	.	.	.	.	.
[2BB-	f	(8C	.	4cc 4ee	f	4ggg	f
.	.	8G	.	.	.	.	.
.	.	8E	.	4cc 4ee	.	4ggg	.
.	.	8C)	.	.	.	.	.
=977	=977	=977	=977	=977	=977	=977	=977
1BB-_	p	(8E	.	4cc 4ee	p	4ggg	p
.	.	8c	.	.	.	.	.
.	.	8G	.	4cc 4ee	.	4ggg	.
.	.	8E	.	.	.	.	.
.	.	8G	.	4cc 4ee	.	4ggg	.
.	.	8e	.	.	.	.	.
.	.	8c	.	4cc 4ee	.	4ggg	.
.	.	8G)	.	.	.	.	.
=978	=978	=978	=978	=978	=978	=978	=978
1BB-_	.	(8c	.	4cc 4ee	.	(8e	.
.	.	8g	.	.	.	8cc	.
.	.	8e	.	4cc 4ee	.	8g	.
.	.	8c	.	.	.	8e	.
.	.	8e	.	4cc 4ee	.	8g	.
.	.	8cc	.	.	.	8ee	.
.	.	8g	.	4cc 4ee	.	8cc	.
.	.	8e	.	.	.	8g	.
=979	=979	=979	=979	=979	=979	=979	=979
1BB-]	.	8g	.	4cc 4ee	.	8cc	.
.	.	8ee	.	.	.	8gg	.
.	.	8cc	.	4cc 4ee	.	8ee	.
.	.	8g	.	.	.	8cc	.
.	.	8e	.	4cc 4ee	.	8ee	.
.	.	8c	.	.	.	8ggg	.
.	.	8G	.	4cc 4ee	.	8eee	.
.	.	8E)	.	.	.	8ccc)	.
=980	=980	=980	=980	=980	=980	=980	=980
(8FF	f	4C 4A	f	4cc 4ff	.	4fff	f
8C	.	.	.	.	.	.	.
8AA	.	4C 4c	.	4cc 4ff	.	4fff	.
8FF)	.	.	.	.	.	.	.
[2BB-	f	(8C	f	4cc 4ee	.	4ggg	f
.	.	8G	.	.	.	.	.
.	.	8E	.	4cc 4ee	.	4ggg	.
.	.	8C)	.	.	.	.	.
=981	=981	=981	=981	=981	=981	=981	=981
1BB-_	p	(8E	.	4cc 4ee	p	4ggg	p
.	.	8c	.	.	.	.	.
.	.	8G	.	4cc 4ee	.	4ggg	.
.	.	8E	.	.	.	.	.
.	.	8G	.	4cc 4ee	.	4ggg	.
.	.	8e	.	.	.	.	.
.	.	8c	.	4cc 4ee	.	4ggg	.
.	.	8G)	.	.	.	.	.
=982	=982	=982	=982	=982	=982	=982	=982
1BB-_	.	(8c	.	4cc 4ee	.	8e	.
.	.	8g	.	.	.	(8cc	.
.	.	8e	.	4cc 4ee	.	8g	.
.	.	8c	.	.	.	8e	.
.	.	8e	.	4cc 4ee	.	8g	.
.	.	8cc	.	.	.	8ee	.
.	.	8g	.	4cc 4ee	.	8cc	.
.	.	8e	.	.	.	8g	.
=983	=983	=983	=983	=983	=983	=983	=983
1BB-]	.	8g	.	4cc 4ee	.	8cc	.
.	.	8ee	.	.	.	8gg	.
.	.	8cc	.	4cc 4ee	.	8ee	.
.	.	8g	.	.	.	8cc	.
.	.	8e	.	4cc 4ee	.	8ee	.
.	.	8c	.	.	.	8ggg	.
.	.	8G	.	4cc 4ee	.	8eee	.
.	.	8E	.	.	.	8ccc)	.
=984	=984	=984	=984	=984	=984	=984	=984
(4AA	.	4C)	.	(8ee-	.	(2ccc	.
.	.	.	.	8ccc	.	.	.
4A	.	(4c	.	8ff	.	.	.
.	.	.	.	8ee-	.	.	.
2B-)	.	4d	.	2dd)	.	8dd	.
.	.	.	.	.	.	8bb-	.
.	.	4f	.	.	.	8ff	.
.	.	.	.	.	.	8dd)	.
=985	=985	=985	=985	=985	=985	=985	=985
(2G	.	4b-)	.	(8dd-	.	(2bb-	.
.	.	.	.	8bb-	.	.	.
.	.	(4B-	.	8ee-	.	.	.
.	.	.	.	8dd-	.	.	.
2A-	.	4c	.	2cc)	.	8cc	.
.	.	.	.	.	.	8aa-	.
.	.	4e-	.	.	.	8ee-	.
.	.	.	.	.	.	8cc)	.
=986	=986	=986	=986	=986	=986	=986	=986
2F	.	4a-)	.	(8cc	.	(2aa-	.
.	.	.	.	8aa-	.	.	.
.	.	(4A-	.	8dd-	.	.	.
.	.	.	.	8cc	.	.	.
2G)	.	4B-)	.	[2b-)	.	8b-	.
.	.	.	.	.	.	8gg	.
.	.	4d-	.	.	.	8dd-	.
.	.	.	.	.	.	8b-)	.
=987	=987	=987	=987	=987	=987	=987	=987
(2E	.	&(4g&)	.	(4b-]	.	(8bb-	.
.	.	.	.	.	.	8gg	.
.	.	(4G	.	[4cc)	.	8cc	.
.	.	.	.	.	.	8bb-)	.
2F	.	4A-	.	(8cc]	.	[2aa-	.
.	.	.	.	8aa-	.	.	.
.	.	4a-)	.	8ff	.	.	.
.	.	.	.	8cc)	.	.	.
=988	=988	=988	=988	=988	=988	=988	=988
2D	.	4f	.	[2b-	.	(8aa-]	.
.	.	.	.	.	.	8ff	.
.	.	(4F	.	.	.	8b-	.
.	.	.	.	.	.	8aa-)	.
2E-	.	4G	.	(8b-]	.	[2gg	.
.	.	.	.	8gg	.	.	.
.	.	4g	.	8ee-	.	.	.
.	.	.	.	8b-)	.	.	.
=989	=989	=989	=989	=989	=989	=989	=989
2C	.	4c)	.	[2a-	.	(8gg]	.
.	.	.	.	.	.	8ee	.
.	.	(4C	.	.	.	8a-	.
.	.	.	.	.	.	8gg	.
2D-)	.	4F	.	(8a-]	.	2ff)	.
.	.	.	.	8ff	.	.	.
.	.	4f	.	8dd-	.	.	.
.	.	.	.	8a-)	.	.	.
=990	=990	=990	=990	=990	=990	=990	=990
(2E-	.	4c)	.	(2a-	.	(8ee-	.
.	.	.	.	.	.	8cc	.
.	.	(4cc	.	.	.	8a-	.
.	.	.	.	.	.	8ee-	.
[2E-)	.	4cc-	.	8f	.	2dd)	.
.	.	.	.	8cc-	.	.	.
.	.	4c-	.	8a-	.	.	.
.	.	.	.	8f)	.	.	.
=991	=991	=991	=991	=991	=991	=991	=991
1E-_	.	4B-	.	(2g	.	(8dd-	.
.	.	.	.	.	.	8b-	.
.	.	4b-	.	.	.	8f-	.
.	.	.	.	.	.	8dd-	.
.	.	4a-	.	8e-	.	2cc)	.
.	.	.	.	8cc	.	.	.
.	.	4A-	.	8a-	.	.	.
.	.	.	.	8e-)	.	.	.
=992	=992	=992	=992	=992	=992	=992	=992
1E-_	.	4f	pp	(8d	.	2cc-	pp
.	.	.	.	8a-	.	.	.
.	.	4a-	.	8f	.	.	.
.	.	.	.	8d	.	.	.
.	.	4g	.	8d-	.	[2b-	.
.	.	.	.	8g	.	.	.
.	.	4G)	.	8f-	.	.	.
.	.	.	.	8d-	.	.	.
=993	=993	=993	=993	=993	=993	=993	=993
1E-]	.	(4g	.	8f-	.	1b-]	.
.	.	.	.	8b-	.	.	.
.	.	2dd-	.	8g	.	.	.
.	.	.	.	8f-	.	.	.
.	.	.	.	8g	.	.	.
.	.	.	.	8dd-	.	.	.
.	.	8g	.	8b-	.	.	.
.	.	8b-)	.	8g)	.	.	.
=994	=994	=994	=994	=994	=994	=994	=994
4A-	p	(8a-	p	(8cc	p	[1a-	p
.	.	8ee-	.	8aa-	.	.	.
4r	.	8cc	.	8ee-	.	.	.
.	.	8a-	.	8cc	.	.	.
2r	.	2dd-)	.	2ff)	.	.	.
=995	=995	=995	=995	=995	=995	=995	=995
1r	.	(8a-	.	(8cc	.	1a-_	.
.	.	8ee-	.	8aa-	.	.	.
.	.	8cc	.	8ee-	.	.	.
.	.	8a-	.	8cc)	.	.	.
.	.	2dd-)	.	2ff	.	.	.
=996	=996	=996	=996	=996	=996	=996	=996
1r	.	(8a-	.	(8cc	.	1a-_	.
.	.	8ee-	.	8aa-	.	.	.
.	.	8cc	.	8ee-	.	.	.
.	.	8a-	.	8cc	.	.	.
.	.	2dd)	.	4ff)	.	.	.
.	.	.	.	[4f	.	.	.
=997	=997	=997	=997	=997	=997	=997	=997
1r	.	(4ee-	.	(4f]	.	2a-]	.
.	.	4ff	.	2e-	.	.	.
.	.	4dd-	.	.	.	(4g	.
.	.	4b-)	.	8f	.	8a-	.
.	.	.	.	8g)	.	8b-	.
=998	=998	=998	=998	=998	=998	=998	=998
1r	.	(4a-	.	(4e-	.	4cc	.
.	.	4g	.	4b-	.	4dd-	.
.	.	4f	.	4a-	.	4dd)	.
.	.	4e-	.	4g)	.	[4ee-	.
=999	=999	=999	=999	=999	=999	=999	=999
1r	.	4f	.	(4a-	.	2ee-_	.
.	.	4g	.	4b-	.	.	.
.	.	4a-	.	4cc	.	(8ee-]	.
.	.	.	.	.	.	8ff	.
.	.	4b-	.	4dd-)	.	4gg)	.
=1000	=1000	=1000	=1000	=1000	=1000	=1000	=1000
1r	.	4cc	.	(4ee-	.	(4aa-	.
.	.	4ee-	.	4cc	.	4ee-	.
.	.	4dd-	.	4b-	.	4gg	.
.	.	4cc)	.	4a-)	.	4aa-)	.
=1001	=1001	=1001	=1001	=1001	=1001	=1001	=1001
1r	.	(4cc	.	(4e-	.	(4aa-	.
.	.	4b-)	.	4dd	.	4gg)	.
.	.	2b-	.	4ee-	.	2gg	.
.	.	.	.	4dd-)	.	.	.
=1002	=1002	=1002	=1002	=1002	=1002	=1002	=1002
2r	.	(8a-	.	(2cc	.	(2aa-	.
.	.	8ee-	.	.	.	.	.
.	.	8cc	.	.	.	.	.
.	.	8a-	.	.	.	.	.
*clefC4	*clefG2	*	*	*	*	*	*
[2e-	.	2dd-)	.	2g	.	8ee-	.
.	.	.	.	.	.	8bb-	.
.	.	.	.	.	.	8gg	.
.	.	.	.	.	.	8ee-)	.
=1003	=1003	=1003	=1003	=1003	=1003	=1003	=1003
(8e-]	.	(8a-	.	2cc	.	(2aa-	.
8cc	.	8ee-	.	.	.	.	.
8a-	.	8cc	.	.	.	.	.
8e-	.	8a-	.	.	.	.	.
[2e-)	.	2dd-)	.	2g	.	8ee-	.
.	.	.	.	.	.	8bb-	.
.	.	.	.	.	.	8gg	.
.	.	.	.	.	.	8ee-)	.
=1004	=1004	=1004	=1004	=1004	=1004	=1004	=1004
(8e-]	.	(8a-	.	2cc	.	[2aa-	.
8cc	.	8ee-	.	.	.	.	.
8a-	.	8cc	.	.	.	.	.
8e-	.	8a-	.	.	.	.	.
[2e-)	.	2dd)	.	2f)	.	(8aa-]	.
.	.	.	.	.	.	8ccc	.
.	.	.	.	.	.	8bb-	.
.	.	.	.	.	.	8aa-)	.
=1005	=1005	=1005	=1005	=1005	=1005	=1005	=1005
4e-]	.	(4ee-	.	(4g	.	(4gg	.
4r	.	4ff	.	2e-	.	4aa-	.
(4g	.	4dd-	.	.	.	4ff	.
8a-	.	4b-)	.	8f	.	4ddd-	.
8b-	.	.	.	8g	.	.	.
=1006	=1006	=1006	=1006	=1006	=1006	=1006	=1006
4cc	.	(4a-	.	4a-	.	4ccc	.
4dd-	.	4g	.	4b-	.	4bb-	.
4ee-)	.	4f	.	4cc	.	4aa-	.
4ee-	.	4e-	.	4dd-	.	4gg)	.
=1007	=1007	=1007	=1007	=1007	=1007	=1007	=1007
[1ee-	.	4f	.	4cc)	.	(4aa-	.
*	*	*	*	*^	*	*	*
.	.	4g	.	[2.e-	(4B-	.	4bb-	.
.	.	4a-	.	.	4A-	.	4ccc	.
.	.	4b-	.	.	4G	.	4ddd-	.
=1008	=1008	=1008	=1008	=1008	=1008	=1008	=1008	=1008
(4ee-]	.	4cc	.	4e-]	4A-	.	4ccc	.
*	*	*	*	*v	*v	*	*	*
4cc	.	4ee-	.	4f	.	4aa	.
4b-	.	4dd-	.	4f-	.	4bb-	.
4dd-)	.	4b-)	.	4e-	.	4gg)	.
=1009	=1009	=1009	=1009	=1009	=1009	=1009	=1009
(4dd	.	(4b-	.	4e-	.	(4gg	.
4cc)	.	4a-)	.	&(4a-&)	.	4aa-)	.
4cc	.	4a-	.	4a-	.	4aa-	.
*clefC4	*clefC4	*	*	*	*	*	*
(4e-	.	4r	.	4r	.	4r	.
=1010	=1010	=1010	=1010	=1010	=1010	=1010	=1010
4a-	.	1r	.	1r	.	1r	.
4g	.	.	.	.	.	.	.
4a-	.	.	.	.	.	.	.
4cc	.	.	.	.	.	.	.
=1011	=1011	=1011	=1011	=1011	=1011	=1011	=1011
4e-	.	2r	.	1r	.	1r	.
4d-	.	.	.	.	.	.	.
4c)	.	4r	.	.	.	.	.
4a-	p	4c	p	.	.	.	.
=1012	=1012	=1012	=1012	=1012	=1012	=1012	=1012
(4a-	.	(4c	.	2r	.	1r	.
4g)	.	4B-)	.	.	.	.	.
(8g	.	(8B-	.	4r	.	.	.
8f	.	8A-	.	.	.	.	.
8e-	.	8G	.	4B-	.	.	.
8d)	.	8F)	.	.	.	.	.
=1013	=1013	=1013	=1013	=1013	=1013	=1013	=1013
(4f	.	(4E-	.	4A-	.	2r	.
4e-)	.	4B-	.	&(4G&)	.	.	.
4e-	.	4E-)	.	4G	.	4r	.
(4e-	.	4r	.	4r	.	(4ee-	.
=1014	=1014	=1014	=1014	=1014	=1014	=1014	=1014
4a-	.	2r	.	2r	.	4aa-	.
4g	.	.	.	.	.	4gg	.
4a-	.	4r	.	4r	.	4aa-	.
4cc	.	(4E-	.	4a-	.	4ccc	.
=1015	=1015	=1015	=1015	=1015	=1015	=1015	=1015
4e-	.	4E-)	.	4c	.	4ee-	.
4d-	.	4E	.	4B-	.	4dd-	.
4c)	.	&(4F&)	.	&(4A-&)	.	4cc)	.
4a-	p	4C	p	4e	p	4aa-	p
=1016	=1016	=1016	=1016	=1016	=1016	=1016	=1016
(4a-	.	2.D-	.	4f	.	(4aa-	.
4g)	.	.	.	&(4e-&)	.	4gg)	.
(8g	.	.	.	8e-	.	(8gg	.
8f	.	.	.	8d	.	8ff	.
8e-	.	4d-	.	8c	.	8ee-	.
8d-)	.	.	.	&(8B-&)	.	8dd-)	.
=1017	=1017	=1017	=1017	=1017	=1017	=1017	=1017
(4c	.	4e-	.	4A-	.	(4cc	.
8d-	.	2E-	.	4G	.	8dd-	.
8B-	.	.	.	.	.	8b-	.
4A-)	.	.	.	&(4c&)	.	4a-)	.
*clefF4	*clefF4	*	*	*	*	*	*
(8D-	.	(8E-	.	8b-	.	(4ee-	.
8BB-)	.	8D-)	.	8g	.	.	.
=1018	=1018	=1018	=1018	=1018	=1018	=1018	=1018
2AA-	.	(2C	.	4a-	.	4aa-	.
.	.	.	.	4g	.	4gg	.
[2CC	.	[2C)	.	4a-	.	4aa-	.
.	.	.	.	4cc	.	4ccc	.
=1019	=1019	=1019	=1019	=1019	=1019	=1019	=1019
(4CC]	.	(4C]	.	4c	.	4ee-	.
4DD-	.	4D-	.	4B-	.	4dd-	.
4EE-	.	4E-	.	4A-	.	4cc)	.
4EE	.	4E	.	&(8G&)	.	4ccc	.
.	.	.	.	8gg	.	.	.
=1020	=1020	=1020	=1020	=1020	=1020	=1020	=1020
4FF	.	4F	.	&(4aa-&)	.	(4ccc	.
4GG	.	4G	.	8gg	.	8bb-	.
.	.	.	.	8ff	.	8aa-)	.
4AA-	.	4A-	.	8ff	.	(8aa-	.
.	.	.	.	&(8ee-&)	.	8gg)	.
4BB-)	.	4B-	.	8ee-	.	(8gg	.
.	.	.	.	&(8dd&)	.	8ff)	.
=1021	=1021	=1021	=1021	=1021	=1021	=1021	=1021
(4EE-	.	4E-	.	4ff	.	(4aa-	.
4D	.	4d	.	&(4ee-&)	.	4gg)	.
4E-	.	4e-	.	4ee-	.	4gg	.
4D-	.	4d-	.	8g	.	(4ee-	.
.	.	.	.	8G	.	.	.
=1022	=1022	=1022	=1022	=1022	=1022	=1022	=1022
4C	.	4c	.	4e-	.	4aa-	.
4BB-	.	4B-	.	4d-	.	4gg	.
4AA-	.	4A-	.	4c	.	4aa-	.
4EE-	.	4E-	.	4a-	.	4ccc	.
=1023	=1023	=1023	=1023	=1023	=1023	=1023	=1023
4FF	.	4F	.	4cc	.	4ee-	.
4GG	.	4G	.	4b-	.	4dd-	.
4AA-)	.	4A-)	.	&(4a-&)	.	4cc)	.
[4CC	f	[4C	.	4ee	f	4aa-	f
=1024	=1024	=1024	=1024	=1024	=1024	=1024	=1024
4CC]	.	4C]	.	4ff	.	(4aa-	.
2DD-	.	2D-	.	&(4ee-&)	.	4gg)	.
.	.	.	.	8ee-	.	(8gg	.
.	.	.	.	8dd-	.	8ff	.
4EE-	.	4E-	.	8cc	.	8ee-	.
.	.	.	.	8b-	.	8dd-)	.
=1025	=1025	=1025	=1025	=1025	=1025	=1025	=1025
4EE-	.	(4E-	.	4a-	.	(4cc	.
2E-	.	8b-	.	8g	.	8dd-	.
.	.	8g	.	8d-	.	8b-	.
.	.	4d-)	.	&(4B-&)	.	4g)	.
4e-	p	(4b-	p	4g	p	(4dd-	p
=1026	=1026	=1026	=1026	=1026	=1026	=1026	=1026
4c	.	4a-)	.	&(4e-&)	.	4ff	.
(2.c	.	4r	.	2e-	.	8ee-	.
.	.	.	.	.	.	8cc	.
.	.	2r	.	.	.	4a-)	.
.	.	.	.	4e	.	(4ee	.
=1027	=1027	=1027	=1027	=1027	=1027	=1027	=1027
4d-)	.	1r	.	&(4f&)	.	4gg	.
(2d-	.	.	.	2f	.	8ff	.
.	.	.	.	.	.	8dd-	.
.	.	.	.	.	.	4b-)	.
[4e)	.	.	.	[4g	.	(4gg	.
=1028	=1028	=1028	=1028	=1028	=1028	=1028	=1028
4e]	.	1r	.	4g]	.	4aa-	.
[2.e	.	.	.	[2.g	.	8gg	.
.	.	.	.	.	.	8ee	.
.	.	.	.	.	.	4cc)	.
.	.	.	.	.	.	(4gg	.
=1029	=1029	=1029	=1029	=1029	=1029	=1029	=1029
4e]	.	1r	.	4g]	.	4bb-	.
[2.f	.	.	.	[2.a	.	8aa	.
.	.	.	.	.	.	8ee-	.
.	.	.	.	.	.	4cc)	.
.	.	.	.	.	.	(4aa	.
=1030	=1030	=1030	=1030	=1030	=1030	=1030	=1030
4f]	.	1r	.	4a]	.	4ccc	.
[2.g	.	.	.	[2.b	.	8bb	.
.	.	.	.	.	.	8ff	.
.	.	.	.	.	.	4dd)	.
.	.	.	.	.	.	(4bb	.
=1031	=1031	=1031	=1031	=1031	=1031	=1031	=1031
4g]	.	1r	.	4b]	.	4ccc	.
[2.g	.	.	.	[2.b	.	8bb	.
.	.	.	.	.	.	8ff	.
.	.	.	.	.	.	4dd)	.
.	.	.	.	.	.	(4bb	.
=1032	=1032	=1032	=1032	=1032	=1032	=1032	=1032
4g]	.	2r	.	4b]	.	4ccc	.
[2.a-	.	.	.	2b	.	8bb	.
.	.	.	.	.	.	8ff)	.
.	.	4r	.	.	.	4dd	.
.	.	[4dd	.	[4b- [4ff	.	(4bb-	.
=1033	=1033	=1033	=1033	=1033	=1033	=1033	=1033
4a-]	pp	4dd]	pp	4b-] 4ff]	pp	4ccc	pp
[2.a-	.	[2.dd	.	[2.b- [2.ff	.	8bb-	.
.	.	.	.	.	.	8ff	.
.	.	.	.	.	.	4dd)	.
.	.	.	.	.	.	(4bb-	.
=1034	=1034	=1034	=1034	=1034	=1034	=1034	=1034
4a-]	.	4dd]	.	4b-] 4ff]	.	4ccc	.
[2.a-	.	[2.dd	.	[2.b- [2.ff	.	8bb-	.
.	.	.	.	.	.	8ff	.
.	.	.	.	.	.	4dd)	.
.	.	.	.	.	.	(4bb-	.
=1035	=1035	=1035	=1035	=1035	=1035	=1035	=1035
4a-]	.	4dd]	.	4b-] 4ff]	.	4ccc	.
2.a-	.	2.dd	.	2.b- 2.ff	.	8bb-	.
.	.	.	.	.	.	8ff	.
.	.	.	.	.	.	4dd)	.
.	.	.	.	.	.	(4bb-	.
=1036	=1036	=1036	=1036	=1036	=1036	=1036	=1036
(2g	.	(4ee-	.	4b- 4gg	.	8ee-)	.
.	.	.	.	.	.	8bb-	.
.	.	4b-	.	4ee-	.	8gg	.
.	.	.	.	.	.	8ee-	.
2f	.	2a-)	.	8cc	.	&(2aa-&)	.
.	.	.	.	8ff	.	.	.
.	.	.	.	8dd	.	.	.
.	.	.	.	&([8b-&)	.	.	.
=1037	=1037	=1037	=1037	=1037	=1037	=1037	=1037
2g	.	(4ee-	.	4b-]	.	(8ee-	.
.	.	.	.	.	.	8bb-	.
.	.	4b-	.	4ee-	.	8gg	.
.	.	.	.	.	.	8ee-	.
2f	.	2a-)	.	8cc	.	2aa-)	.
.	.	.	.	8ff	.	.	.
.	.	.	.	8dd	.	.	.
.	.	.	.	&([8b-&)	.	.	.
=1038	=1038	=1038	=1038	=1038	=1038	=1038	=1038
2g	.	(4ee-	.	4b-]	.	(8ee-	.
.	.	.	.	.	.	8bb-	.
.	.	4b-	.	&([4ee-&)	.	8gg	.
.	.	.	.	.	.	8ee-	.
[2f)	.	8cc	.	8ee-]	.	2aa)	.
.	.	8ee-	.	8gg-	.	.	.
.	.	8dd	.	8ff	.	.	.
.	.	8cc)	.	8ee-	.	.	.
=1039	=1039	=1039	=1039	=1039	=1039	=1039	=1039
(4f]	.	(4b-	.	4dd-	.	(4bb-	.
4e	.	4g	.	&(2cc&)	.	4ccc	.
4f	.	4a-	.	.	.	4aa-	.
4A-)	.	4c)	.	4cc	.	4ff)	.
=1040	=1040	=1040	=1040	=1040	=1040	=1040	=1040
(4A	.	(4g-	.	4cc	.	(4ee-	.
2B-)	.	4f	.	4b-	.	4dd	.
.	.	4e-	.	4g-	.	4cc	.
4B-	.	4d	.	4f	.	4b-	.
=1041	=1041	=1041	=1041	=1041	=1041	=1041	=1041
(4B-	.	4e-	.	4g	.	4cc	.
4A-	.	4f	.	&(2b-&)	.	4dd	.
4G	.	4g	.	.	.	4ee-	.
4F	.	4A-	.	4dd	.	4ff	.
=1042	=1042	=1042	=1042	=1042	=1042	=1042	=1042
4E-	.	4G	.	4ee-	.	4gg	.
4C	.	4E-	.	4gg	.	4bb-	.
4D	.	4F	.	4ff	.	4aa-)	.
4E-	.	4G)	.	&(4ee-&)	.	4gg	.
=1043	=1043	=1043	=1043	=1043	=1043	=1043	=1043
4BB-	.	(4G	.	2ee-	.	(4gg	.
4AA	.	4c	.	.	.	4ff)	.
4BB-)	.	4B-)	.	&(4dd&)	.	4ff	.
(4DD	.	4F 4A-	.	4B- 4f	.	[4bb-	.
=1044	=1044	=1044	=1044	=1044	=1044	=1044	=1044
[1EE-)	.	(8E- 8G	.	&(8B-&) 8g	.	2bb-_	.
.	.	8B-	.	8b-	.	.	.
.	.	8G	.	8g	.	.	.
.	.	8E-	.	8e-	.	.	.
.	.	2A-)	.	&(2a-&)	.	(8bb-]	.
.	.	.	.	.	.	8fff	.
.	.	.	.	.	.	8ddd	.
.	.	.	.	.	.	8bb-)	.
=1045	=1045	=1045	=1045	=1045	=1045	=1045	=1045
1EE-_	.	(8G	.	8g	.	(4eee-	.
.	.	8B-	.	8a-	.	.	.
.	.	8G	.	8g	.	[4bb-)	.
.	.	8E-	.	8e-	.	.	.
.	.	2A-)	.	&(2a-&)	.	(8bb-]	.
.	.	.	.	.	.	8fff	.
.	.	.	.	.	.	8ddd	.
.	.	.	.	.	.	8bb-)	.
=1046	=1046	=1046	=1046	=1046	=1046	=1046	=1046
(4EE-]	.	(8G	.	8g	.	(4eee-	.
.	.	8B-	.	8b-	.	.	.
4GG	.	8G	.	8g	.	8bb-	.
.	.	8E-	.	8e-	.	[8eee-)	.
4GG-	.	2A)	.	&(2a&)	.	(8eee-]	.
.	.	.	.	.	.	8ggg-	.
4FF)	.	.	.	.	.	8fff	.
.	.	.	.	.	.	8eee-)	.
=1047	=1047	=1047	=1047	=1047	=1047	=1047	=1047
(2.FF	.	[2B-	.	4b-	.	(8eee-	.
.	.	.	.	.	.	8ddd	.
.	.	.	.	4ccc	.	8ccc	.
.	.	.	.	.	.	8ddd)	.
.	.	(8B-]	.	4aa-	.	(8ddd	.
.	.	8D	.	.	.	8ccc)	.
8GG	.	8E-	.	&(4ff&)	.	(8ccc	.
8AA-)	.	8F)	.	.	.	8bb-)	.
=1048	=1048	=1048	=1048	=1048	=1048	=1048	=1048
(2GG	.	(4G	.	4ee-	.	(8bb-	.
.	.	.	.	.	.	8eee-	.
.	.	4F	.	4dd	.	8bb-	.
.	.	.	.	.	.	8ddd	.
2AA-	.	4E-	.	4cc	.	8bb-	.
.	.	.	.	.	.	8ccc	.
.	.	4D	.	4b-	.	8bb-)	.
.	.	.	.	.	.	(8bb-	.
=1049	=1049	=1049	=1049	=1049	=1049	=1049	=1049
2GG	.	4E-	.	4cc	.	4ccc	.
.	.	4F	.	4dd	.	4ddd	.
2FF)	.	4G	.	4ee-	.	4eee-	.
.	.	4A-)	.	4ff	.	4fff	.
=1050	=1050	=1050	=1050	=1050	=1050	=1050	=1050
(4EE-	p	4B-	p	4gg	p	4ggg	p
4DD-	.	(2E-	.	4bb-	.	4bbb-	.
4CC	.	.	.	4aa-	.	4aaa-	.
4DD	.	8F	.	&(4ff&)	.	4fff)	.
.	.	8A-)	.	.	.	.	.
=1051	=1051	=1051	=1051	=1051	=1051	=1051	=1051
4EE-)	.	(4A-	.	4ff	.	(4fff	.
8E-	.	4G)	.	&(4ee-&)	.	4eee-)	.
8F	.	.	.	.	.	.	.
8G	.	4G	.	4ee-	.	4eee-	.
8A-	.	.	.	.	.	.	.
8B-	.	8e-	.	8gg	.	(4bb-	.
8B-	.	8f	.	8aa-	.	.	.
=1052	=1052	=1052	=1052	=1052	=1052	=1052	=1052
4B-	.	8g	.	8bb-	.	4eee-	.
.	.	8f	.	8aa-	.	.	.
4r	.	8f	.	8aa-	.	4ddd	.
.	.	8e-	.	8gg	.	.	.
2r	.	8ee-	.	8gg	.	4eee-	.
.	.	8dd	.	8ff	.	.	.
.	.	8cc	.	8ee-	.	4ggg	.
.	.	8b-	.	8dd	.	.	.
=1053	=1053	=1053	=1053	=1053	=1053	=1053	=1053
2r	.	8a-	.	8cc	.	4bb-	.
.	.	8g	.	8b-	.	.	.
.	.	8a-	.	8cc	.	4aa-	.
.	.	8f	.	8dd	.	.	.
4r	.	8e-	.	8ee-	.	4gg)	.
.	.	8g	.	8ee-	.	.	.
8B-	f	8a-	f	8ff	.	4eee-	f
8B-	.	8b-	.	8gg	.	.	.
=1054	=1054	=1054	=1054	=1054	=1054	=1054	=1054
8B-	.	8cc	.	8aa-	.	4eee-	.
8B-	.	8ee-	.	8gg	.	.	.
8B-	.	8ee-	.	8gg	.	4ccc)	.
8B-	.	8dd	.	8ff	.	.	.
8B-	.	8dd	.	8ff	.	4bb-	.
8B-	.	8cc	.	8ee-	.	.	.
8B-	.	8cc	.	8ee-	.	4aa)	.
8B-	.	8dd	.	8ff	.	.	.
=1055	=1055	=1055	=1055	=1055	=1055	=1055	=1055
8B-	.	8dd	.	8ff	.	4ccc	.
8B-	.	8ee-	.	8gg	.	.	.
8B-	.	8dd	.	8ff	.	4bb-)	.
8B-	.	8cc	.	8ee-	.	.	.
4B-	.	8cc	.	8ee-	.	4bb-	.
.	.	8b-	.	8dd	.	.	.
4r	.	8b-	p	8gg	p	(8bb-	p
.	.	8a-	.	8ff	.	8eee-)	.
=1056	=1056	=1056	=1056	=1056	=1056	=1056	=1056
1r	.	8g	.	8bb-	.	(4eee-	.
.	.	8f	.	8aa-	.	.	.
.	.	8f	.	8aa-	.	4ddd	.
.	.	8e-	.	8gg	.	.	.
.	.	8ee-	.	8gg	.	4eee-	.
.	.	8dd	.	8ff	.	.	.
.	.	8cc	.	8ee-	.	4ggg	.
.	.	8b-	.	8dd	.	.	.
=1057	=1057	=1057	=1057	=1057	=1057	=1057	=1057
2r	.	8a-	.	8cc	.	4bb-	.
.	.	8g	.	8b-	.	.	.
.	.	8f	.	8cc	.	4aa-	.
.	.	8f	.	8dd	.	.	.
4r	.	8f	.	8dd	.	4gg)	.
.	.	8e-	.	8ee-	.	.	.
8e-	.	8G	.	8b-	.	4eee-	.
8e-	.	8G	.	8b	.	.	.
=1058	=1058	=1058	=1058	=1058	=1058	=1058	=1058
8e-	f	8G	f	8b	.	4eee-	f
8e-	.	8A-	.	8cc	.	.	.
8e-	.	8A-	.	8cc	.	4ccc)	.
8e-	.	8B-	.	8dd	.	.	.
8e-	.	8B-	.	8dd	.	4bb-	f
8e-	.	8c	.	8ee-	.	.	.
8e-	.	8c	.	8ee-	.	4aa-)	.
8e-	.	8d	.	8ff	.	.	.
=1059	=1059	=1059	=1059	=1059	=1059	=1059	=1059
8e-	.	8d	.	8ff	.	(4gg	.
8e-	.	8e-	.	8gg	.	.	.
8e-	.	8b-	.	8ff	.	8aa-	.
8e-	.	8a-	.	8dd	.	8ff	.
4e-	.	4g	.	4ee-	.	8ee-)	.
.	.	.	.	.	.	8ddd	p
4r	.	4g	p	4b-	p	8eee-	.
.	.	.	.	.	.	8ccc	.
=1060	=1060	=1060	=1060	=1060	=1060	=1060	=1060
4r	.	(4g	.	4ee-	.	8ccc	.
.	.	.	.	.	.	8bb-	.
8r	.	4f	.	4dd	.	8b-	.
8BB-	p	.	.	.	.	8aa-	.
4B-	.	4g	.	4ee-	.	8aa-	.
.	.	.	.	.	.	8gg	.
8r	.	4b-	.	4gg	.	8g	.
8BB-	.	.	.	.	.	8ff	.
=1061	=1061	=1061	=1061	=1061	=1061	=1061	=1061
4B-	.	4g	.	4b-	.	8ff	.
.	.	.	.	.	.	8ee-	.
8r	.	4f	.	4a-	.	8ff	.
8BB-	.	.	.	.	.	8gg	.
4B-	.	4e-)	.	&(4g&)	.	8aa-	.
.	.	.	.	.	.	8aa	.
8r	.	4g	.	4ee-	.	8bb-	.
8BB-	.	.	.	.	.	8ccc	.
=1062	=1062	=1062	=1062	=1062	=1062	=1062	=1062
4B-	f	(4g	f	4ee-	f	8bb-	f
.	.	.	.	.	.	8aa	.
8r	.	4e-)	.	&(4cc&)	.	8bb-	.
8BB-	.	.	.	.	.	8ccc	.
4B-	.	4d	.	4b-	.	8ddd	.
.	.	.	.	.	.	8eee-	.
8r	.	4c)	.	&(4a&)	.	8fff	.
8BB-	.	.	.	.	.	8fff	.
=1063	=1063	=1063	=1063	=1063	=1063	=1063	=1063
4B-	.	4e-	.	4cc	.	8fff	.
.	.	.	.	.	.	8fff	.
8r	.	4d)	.	&(4b-&)	.	8ggg	.
8BB-	.	.	.	.	.	8aaa	.
4B-	.	4d	.	4b-	.	8bbb-	p
.	.	.	.	.	.	8bb-	.
8r	.	4g	p	4b-	p	8ccc	.
8BB-	p	.	.	.	.	8bb-	.
=1064	=1064	=1064	=1064	=1064	=1064	=1064	=1064
4B-	.	(4g	.	4ee-	.	8ccc	.
.	.	.	.	.	.	8bb-	.
8r	.	4f	.	4dd	.	8b-	.
8BB-	.	.	.	.	.	8aa-	.
4B-	.	4g	.	4ee-	.	8aa-	.
.	.	.	.	.	.	8gg	.
8r	.	4b-	.	4gg	.	8g	.
8BB-	.	.	.	.	.	8ff	.
=1065	=1065	=1065	=1065	=1065	=1065	=1065	=1065
4B-	.	4g	.	4b-	.	8ff	.
.	.	.	.	.	.	8ee-	.
8r	.	4f	.	4a-	.	8eee-	.
8B-	.	.	.	.	.	8ddd	.
4e-	.	4e-)	.	&(4g&)	.	8eee-	.
.	.	.	.	.	.	8ddd	.
8r	.	4g	.	4ee-	.	8ccc	.
8E-	.	.	.	.	.	8bb	.
=1066	=1066	=1066	=1066	=1066	=1066	=1066	=1066
4A-	f	(4cc	f	4ee-	f	8bb	f
.	.	.	.	.	.	8ccc	.
8r	.	4a-)	.	&(4cc&)	.	8ddd	.
8AA-	.	.	.	.	.	8eee-	.
4A-	.	4g	.	4b-	.	8eee	.
.	.	.	.	.	.	8fff	.
8r	.	4f)	.	&(4a-&)	.	8ggg	.
8BB-	.	.	.	.	.	8aaa-	.
=1067	=1067	=1067	=1067	=1067	=1067	=1067	=1067
4B-	.	(8e-	.	4g	.	8aaa	.
.	.	8B-)	.	.	.	8bbb-	.
8r	.	(8B-	.	8a-	.	8cccc	.
8BB-	.	8A-)	.	&(8f&)	.	8dddd	.
8E-	.	8G	.	8e-	.	4eeee-	.
8E-	.	(8G	.	8b-	.	.	.
8E-	.	8A-	.	8cc	.	4ee-	.
8E-	.	8F)	.	&(8a-&)	.	.	.
=1068	=1068	=1068	=1068	=1068	=1068	=1068	=1068
4E-	.	4G	.	4g	.	4ee-	.
4a-	.	4e-	.	4cc	.	4ee-	.
4g	.	4e-	.	4b-	.	4ee-	.
4f	.	4e-	.	4a-	.	4ee-	.
=1069	=1069	=1069	=1069	=1069	=1069	=1069	=1069
4e-	.	4e-	.	4g	.	(4ee-	.
4d	.	4ee-	.	4f	.	8ff	.
.	.	.	.	.	.	8gg)	.
4c	.	4ee-	.	4e-	.	4aa-	.
4B-	.	4ee-	.	4e-	.	4gg	.
=1070	=1070	=1070	=1070	=1070	=1070	=1070	=1070
4A-	f	4ee-	f	4e-	f	4ccc	f
4G	.	4ee-	.	8b-	.	4bb-	.
.	.	.	.	8cc	.	.	.
4F	f	4b-	f	&(4dd&)	f	4aa-	f
4E-	.	4b-	.	4ee-	.	4gg	.
=1071	=1071	=1071	=1071	=1071	=1071	=1071	=1071
4BB-	f	4b-	f	4dd	f	4ff	f
4B-	.	4b-	.	4cc	.	4ee-	.
4B-	f	4b-	f	4dd	f	4ff	f
4f	.	4a-	.	4r	.	4b-	.
=1072	=1072	=1072	=1072	=1072	=1072	=1072	=1072
4e-	.	4g	.	1r	.	4ee-	.
4a-	.	4cc	.	.	.	4ee-	.
4g	.	4b-	.	.	.	4ee-	.
4f	.	4a-	.	.	.	4ee-	.
=1073	=1073	=1073	=1073	=1073	=1073	=1073	=1073
4e-	.	4g	.	4e-	.	(4ee-	.
4d	.	4f	.	4ee-	.	8ff	.
.	.	.	.	.	.	8gg	.
4c	.	4e-	.	4ee-	.	4aa-)	.
4B-	.	4e-	.	4ee-	.	4gg	.
=1074	=1074	=1074	=1074	=1074	=1074	=1074	=1074
4A-	.	4b-	.	4ee-	.	4ccc	.
4G	.	8b-	.	4ee-	.	4bb-	.
.	.	8cc	.	.	.	.	.
4F	f	4dd	f	4ff	f	4aa-	f
4E-	.	4ee-	.	4gg	.	4gg	.
=1075	=1075	=1075	=1075	=1075	=1075	=1075	=1075
4B-	f	4dd	f	4b-	.	4ff	f
4r	.	4r	.	4cc	.	4ee-	.
4r	.	4r	f	4b-	.	4dd	f
4BB-	.	4B-	.	4a-	.	4cc	.
=1076	=1076	=1076	=1076	=1076	=1076	=1076	=1076
4G	p	4B-	p	4g	p	4b-	p
4F	.	4A-	.	4f	.	4a-	.
4E-	.	4G	.	4e-	.	4g	.
4BB-	.	4F	.	4B-	.	4f	.
=1077	=1077	=1077	=1077	=1077	=1077	=1077	=1077
4GG	.	4E-	.	4G	.	4e-	.
4r	.	4r	.	4r	.	4d	.
2r	.	2r	.	2r	.	4c	.
.	.	.	.	.	.	4B-	.
=1078	=1078	=1078	=1078	=1078	=1078	=1078	=1078
2r	.	4d	f	4aa-	f	4ccc	f
.	.	4e-	.	4gg	.	4bb-	.
4d	f	4b-	f	4ff	f	4aa-	f
4e-	.	4b-	.	4ee-	.	4gg	.
=1079	=1079	=1079	=1079	=1079	=1079	=1079	=1079
4f	f	4b-	f	4dd	f	4ff	f
4E-	.	4f	.	4cc	.	4ee-	.
4B-	f	4f	f	4b-	.	4dd	f
4B-	.	4g-	.	4e- 4a	.	4cc	.
=1080	=1080	=1080	=1080	=1080	=1080	=1080	=1080
4GG-	p	4G-	p	1r	.	4g-	p
4GG	.	4G	.	.	.	4g	.
4EE-	.	4E-	.	.	.	4e-	.
4GG	.	4G	.	.	.	4g	.
=1081	=1081	=1081	=1081	=1081	=1081	=1081	=1081
4AA-	.	4A-	.	2r	.	4a-	.
4AA	.	4A	.	.	.	4a	.
2C	f	2C 2c	f	4c	.	2cc	f
.	.	.	.	4cc	.	.	.
=1082	=1082	=1082	=1082	=1082	=1082	=1082	=1082
4D-	p	1r	.	1r	p	4d-	.
4D	.	.	.	.	.	4d	.
4BB-	.	.	.	.	.	4B-	.
4D	.	.	.	.	.	4d	.
=1083	=1083	=1083	=1083	=1083	=1083	=1083	=1083
4E-	.	2r	.	2r	.	4e-	.
4E	.	.	.	.	.	4e	.
2G	f	4G	f	4g	.	2g	f
.	.	4g	.	4gg	.	.	.
=1084	=1084	=1084	=1084	=1084	=1084	=1084	=1084
4E	p	2r	.	2r	.	4e	p
4F	.	.	.	.	.	4f	.
2A-	f	4A-	f	4a-	f	2a-	f
.	.	4a-	.	4aa-	.	.	.
=1085	=1085	=1085	=1085	=1085	=1085	=1085	=1085
4F#	p	2r	.	2r	.	4f#	p
4G	.	.	.	.	.	4g	.
2B-	f	4B-	f	4b-	.	2b-	f
.	.	4b-	.	4bb-	.	.	.
=1086	=1086	=1086	=1086	=1086	=1086	=1086	=1086
4FF	ff	4G#	ff	4g#	.	1ee- 1eee-	ff
4FF	.	4A	.	4a	.	.	.
2FF	.	2F 2A	.	2a 2cc	.	.	.
=1087	=1087	=1087	=1087	=1087	=1087	=1087	=1087
4FF	.	4G#	.	4g#	.	1ee- 1eee-	.
4FF	.	4A	.	4a	.	.	.
2FF	.	2F 2A	.	2a 2cc	.	.	.
=1088	=1088	=1088	=1088	=1088	=1088	=1088	=1088
4FF	.	4G#	.	4g#	.	1ee- 1eee-	.
4FF	.	4A	.	4a	.	.	.
2FF	.	2F 2A	.	2a 2cc	.	.	.
=1089	=1089	=1089	=1089	=1089	=1089	=1089	=1089
(4GG	.	(4B-	.	4b- 4bb-	.	(4ee- 4eee-	.
4AA-	.	4c	.	8bb-	.	8ddd	.
.	.	.	.	8aa-	.	8ccc	.
4BB-)	.	4e-)	.	&(4gg&)	.	4bb-)	.
(8d	.	(8f	.	8ff	.	(8aa-	.
8e-)	.	8g)	.	&(8ee-&)	.	8gg)	.
=1090	=1090	=1090	=1090	=1090	=1090	=1090	=1090
4FF 4C	ff	4F 4c	.	4gg#	ff	4eee-	ff
4FF 4C	.	4F 4c	.	4a 4aa	.	(12fff	.
.	.	.	.	.	.	12eee-	.
.	.	.	.	.	.	12ddd)	.
2FF 2C	.	2F 2c	.	2a 2ccc	.	4eee-	.
.	.	.	.	.	.	(12fff	.
.	.	.	.	.	.	12eee-	.
.	.	.	.	.	.	12ddd)	.
=1091	=1091	=1091	=1091	=1091	=1091	=1091	=1091
4FF 4C	.	4F 4c	.	4gg#	.	4eee-	.
4FF 4C	.	4F 4c	.	4a 4aa	.	(12fff	.
.	.	.	.	.	.	12eee-	.
.	.	.	.	.	.	12ddd)	.
2FF 2C	.	2F 2c	.	2a 2ccc	.	4eee-	.
.	.	.	.	.	.	(12fff	.
.	.	.	.	.	.	12eee-	.
.	.	.	.	.	.	12ddd)	.
=1092	=1092	=1092	=1092	=1092	=1092	=1092	=1092
4FF 4C	.	4F 4c	.	4gg#	.	4eee-	.
4FF 4C	.	4F 4c	.	4a 4aa	.	(12fff	.
.	.	.	.	.	.	12eee-	.
.	.	.	.	.	.	12ddd)	.
2FF 2C	.	2F 2c	.	2a 2ccc	.	4eee-	.
.	.	.	.	.	.	(12fff	.
.	.	.	.	.	.	12eee-	.
.	.	.	.	.	.	12ddd)	.
=1093	=1093	=1093	=1093	=1093	=1093	=1093	=1093
(4GG	.	(4G	.	8b-	.	(4eee-	.
.	.	.	.	&(8bb-&)	.	.	.
4AA-	.	4C	.	8bb-	.	8ddd	.
.	.	.	.	&(8aa-&)	.	8ccc	.
4BB-)	.	8E-)	.	4gg	.	4bb-)	.
.	.	(8e-	.	.	.	.	.
(8d	.	8f	.	8ff	.	(8aa-	.
8e-)	.	8g)	.	&(8ee-&)	.	8gg)	.
=1094	=1094	=1094	=1094	=1094	=1094	=1094	=1094
(8c	.	(8e-	.	8gg	.	(8bb-	.
8d)	.	8f	.	8ff	.	8aa-	.
8d	.	8g	.	8ee	.	8gg	.
8d	.	8f)	.	&(8ff&)	.	8aa-)	.
4d	.	4f	.	4ff	.	4aa-	.
4d	.	4f	.	4ff	.	4aa-	.
=1095	=1095	=1095	=1095	=1095	=1095	=1095	=1095
(8d	.	(8f	.	8ff	.	(8aa-	.
8e-)	.	8g)	.	8ee-	.	8gg	.
8e-	.	8g	.	8dd	.	8ff#	.
8e-	.	8g	.	&(8ee-&)	.	8gg)	.
4e-	.	4g	.	4ee-	.	4gg	.
4c	p	4e-	p	4r	.	4r	.
=1096	=1096	=1096	=1096	=1096	=1096	=1096	=1096
(8B-	.	(8d	.	1r	.	1r	.
8A-	.	8c	.	.	.	.	.
8G	.	8B-	.	.	.	.	.
8A-)	.	8c)	.	.	.	.	.
4G	.	4B-	.	.	.	.	.
4A-	.	4c	.	.	.	.	.
=1097	=1097	=1097	=1097	=1097	=1097	=1097	=1097
(8G	.	(8B-	.	2r	.	2r	.
8F	.	8A-	.	.	.	.	.
8E-	.	8G	.	.	.	.	.
8F)	.	8A-)	.	.	.	.	.
4E-	.	4G	.	4r	.	4r	.
4e-	f	4g	f	8aa-	f	(8ccc	f
.	.	.	.	&(8gg&)	.	8bb-)	.
=1098	=1098	=1098	=1098	=1098	=1098	=1098	=1098
(8c	.	(8e-	.	8gg	.	(8bb-	.
8d)	.	8f	.	8ff	.	8aa-	.
8d	.	8g	.	8ee	.	8gg	.
8d	.	8f)	.	&(8ff&)	.	8aa-)	.
4d	.	4f	.	4ff	.	4aa-	.
4d	.	4f	.	4ff	.	4aa-	.
=1099	=1099	=1099	=1099	=1099	=1099	=1099	=1099
(8d	.	(8f	.	8ff	.	(8aa-	.
8e-)	.	8g)	.	8ee-	.	8gg	.
8e-	.	8g	.	8dd	.	8ff#	.
8e-	.	8g	.	&(8ee-&)	.	8gg)	.
4e-	.	4g	.	4ee-	.	4gg	.
4r	.	4r	.	4gg	.	4bb-	.
=1100	=1100	=1100	=1100	=1100	=1100	=1100	=1100
(8AA	.	(8C	.	8gg	.	(8bb-	.
8BB-)	.	8D)	.	8ff	.	8aa-	.
4r	.	4r	.	8ee	.	8gg	.
.	.	.	.	&(8ff&)	.	8aa-)	.
2r	.	2r	.	4ff	.	4aa-	.
.	.	.	.	4ff	.	4aa-	.
=1101	=1101	=1101	=1101	=1101	=1101	=1101	=1101
4BB	.	(8D	.	8gg	.	(8bb-	.
.	.	8E-)	.	8ff	.	8aa-	.
4r	.	4r	.	8ee	.	8gg	.
.	.	.	.	&(8ff&)	.	8aa-)	.
2r	.	2r	.	4ff	.	4aa-	.
.	.	.	.	4ff	.	4aa-	.
=1102	=1102	=1102	=1102	=1102	=1102	=1102	=1102
(8BB	.	(8D	.	8ff	.	(8aa-	.
8C)	.	8E-)	.	8ee-	.	8gg	.
4r	.	4r	.	8dd	.	8ff#	.
.	.	.	.	&(8ee-&)	.	8gg)	.
2r	.	2r	.	4ee-	.	4gg	.
.	.	.	.	4ee-	.	4gg	.
=1103	=1103	=1103	=1103	=1103	=1103	=1103	=1103
(8C	p	(8E-	.	4ee-	p	(4gg	p
8E-)	.	8G)	.	.	.	.	.
4r	.	4r	.	4ee-	.	4gg	.
2r	.	2r	.	4ee-	.	4gg	.
.	.	.	.	&(4ee-&)	.	4gg)	.
=1104	=1104	=1104	=1104	=1104	=1104	=1104	=1104
(8C	pp	(8E	.	4ee	pp	(4gg	pp
8E)	.	8G)	.	.	.	.	.
(4c	.	4r	.	4ee	.	4gg	.
4c	.	2r	.	4ee	.	4gg	.
4c)	.	.	.	&(4ee&)	.	4gg)	.
=1105	=1105	=1105	=1105	=1105	=1105	=1105	=1105
!! Allegro con moto
*k[]	*k[]	*k[]	*k[]	*k[]	*k[]	*k[]	*k[]
*M6/8	*M6/8	*M6/8	*M6/8	*M6/8	*M6/8	*M6/8	*M6/8
*MM78	*MM78	*MM78	*MM78	*MM78	*MM78	*MM78	*MM78
[2.c	.	2.r	.	[2.ee	.	2.gg	.
=1106	=1106	=1106	=1106	=1106	=1106	=1106	=1106
2.c]	.	2.r	.	2.ee_	.	[2.gg	.
=1107	=1107	=1107	=1107	=1107	=1107	=1107	=1107
8c	.	(8e	.	4.ee]	.	4.gg]	.
8e	.	8g)	.	.	.	.	.
8r	.	8r	.	.	.	.	.
8c	.	(8e	pp	24ee	pp	(24gg	pp
.	.	.	.	24dd	.	24ff	.
.	.	.	.	24cc	.	24ee	.
8e	.	8g)	.	24b	.	24dd	.
.	.	.	.	24a	.	24cc	.
.	.	.	.	24g	.	24b	.
8r	.	8r	.	24f	.	24a	.
.	.	.	.	24e	.	24g	.
.	.	.	.	&(24d&)	.	24b)	.
=1108	=1108	=1108	=1108	=1108	=1108	=1108	=1108
[4.c	.	(8e	.	24e	.	(8cc	.
.	.	.	.	24c	.	.	.
.	.	.	.	24d	.	.	.
.	.	4cc)	.	24e	.	8gg)	.
.	.	.	.	24f	.	.	.
.	.	.	.	24g	.	.	.
.	.	.	.	24a	.	16ee	.
.	.	.	.	24b	.	.	.
.	.	.	.	.	.	16cc	.
.	.	.	.	24cc	.	.	.
4.c_	.	4.b	.	24dd	.	(16g	.
.	.	.	.	24ee	.	.	.
.	.	.	.	.	.	[16ff)	.
.	.	.	.	24cc	.	.	.
.	.	.	.	24b	.	4ff]	.
.	.	.	.	24a	.	.	.
.	.	.	.	24g	.	.	.
.	.	.	.	24f	.	.	.
.	.	.	.	24e	.	.	.
.	.	.	.	&(24d&)	.	.	.
=1109	=1109	=1109	=1109	=1109	=1109	=1109	=1109
4.c_	.	(8e	.	24e	.	(8cc	.
.	.	.	.	24c	.	.	.
.	.	.	.	24d	.	.	.
.	.	4cc)	.	24e	.	8gg)	.
.	.	.	.	24f	.	.	.
.	.	.	.	24g	.	.	.
.	.	.	.	24a	.	16ee	.
.	.	.	.	24b	.	.	.
.	.	.	.	.	.	16cc	.
.	.	.	.	24cc	.	.	.
4.c_	.	[4.e-	.	24cc	.	(16f#	.
.	.	.	.	24ee-	.	.	.
.	.	.	.	.	.	[16ff#)	.
.	.	.	.	24cc	.	.	.
.	.	.	.	24ee-	.	4ff#]	.
.	.	.	.	24cc	.	.	.
.	.	.	.	24ee-	.	.	.
.	.	.	.	24cc	.	.	.
.	.	.	.	&(24ee-&)	.	.	.
.	.	.	.	24cc	.	.	.
=1110	=1110	=1110	=1110	=1110	=1110	=1110	=1110
(8c]	.	(8e-]	.	24ee-	.	(16g	.
.	.	.	.	24cc	.	.	.
.	.	.	.	.	.	16gg)	.
.	.	.	.	24ee-	.	.	.
16A-)	.	16cc)	.	24cc	.	(16a-	.
.	.	.	.	24ee-	.	.	.
16r	.	16r	.	.	.	16aa-)	.
.	.	.	.	24dd-	.	.	.
8r	.	8r	.	24cc	.	(24ee-	.
.	.	.	.	24dd-	.	24ff	.
.	.	.	.	24b-	.	24dd-	.
4r	.	4r	.	24a-	.	24cc	.
.	.	.	.	24b-	.	24dd-	.
.	.	.	.	24g	.	24b-	.
.	.	.	.	24f	.	24a-	.
.	.	.	.	24g	.	24b-	.
.	.	.	.	24e-	.	24g	.
8r	.	8r	.	24d-	.	24f	.
.	.	.	.	24c	.	24e-	.
.	.	.	.	&(24B-&)	.	24g)	.
=1111	=1111	=1111	=1111	=1111	=1111	=1111	=1111
[4.AA-	.	(24c	.	8a-	.	(24e-	.
.	.	24A-	.	.	.	24c	.
.	.	24B-	.	.	.	24d-	.
.	.	24c	.	&(8ee-&)	.	24e-	.
.	.	24d-	.	.	.	24f	.
.	.	24e-	.	.	.	24g	.
.	.	24f	.	16cc	.	24a-	.
.	.	24g	.	.	.	24b-	.
.	.	.	.	16a-	.	.	.
.	.	24a-	.	.	.	24cc	.
4.AA-_	.	24b-	.	16e-	.	24dd-	.
.	.	24a-	.	.	.	24cc	.
.	.	.	.	&([16dd-&)	.	.	.
.	.	24g	.	.	.	24b-	.
.	.	24f	.	4dd-]	.	24a-	.
.	.	24e-	.	.	.	24g	.
.	.	24d-	.	.	.	24f	.
.	.	24c	.	.	.	24e-	.
.	.	24d-	.	.	.	24f	.
.	.	24B-)	.	.	.	24g)	.
=1112	=1112	=1112	=1112	=1112	=1112	=1112	=1112
4.AA-_	.	(24c	.	8a-	.	(24e-	.
.	.	24A-	.	.	.	24c	.
.	.	24B	.	.	.	24d-	.
.	.	24c	.	&(8ee-&)	.	24e-	.
.	.	24d-	.	.	.	24f	.
.	.	24e-	.	.	.	24g	.
.	.	24f	.	16cc	.	24a-	.
.	.	24g	.	.	.	24b-	.
.	.	.	.	16a-	.	.	.
.	.	24a-	.	.	.	24cc	.
4.AA-_	.	24a-	.	16d	.	24cc-	.
.	.	24cc-	.	.	.	24a-	.
.	.	.	.	&([16dd&)	.	.	.
.	.	24a-	.	.	.	24cc-	.
.	.	24cc-	.	4dd]	.	24a-	.
.	.	24a-	.	.	.	24cc-	.
.	.	24cc-	.	.	.	24a-	.
.	.	24a-	.	.	.	24cc-	.
.	.	24cc-	.	.	.	24a-	.
.	.	24a-	.	.	.	24cc-	.
=1113	=1113	=1113	=1113	=1113	=1113	=1113	=1113
(8AA-]	.	24cc-	.	16d#	.	24a-	.
.	.	24a-	.	.	.	24cc-	.
.	.	.	.	&(16dd#&)	.	.	.
.	.	24cc-	.	.	.	24a-	.
16FF-)	.	24a-	.	16e	.	24cc-	.
.	.	24cc-	.	.	.	24a-	.
16r	.	.	.	&(16ee&)	.	.	.
.	.	24a-)	.	.	.	24cc-)	.
8r	.	(24G#	.	24ee	.	(24e	.
.	.	24G#	.	24dd#	.	24e	.
.	.	24G#	.	24cc#	.	24e	.
4r	.	24G#	.	24b	.	24e	.
.	.	24A	.	24a	.	24f#	.
.	.	24B	.	24g#	.	24g#	.
.	.	24c#	.	24f#	.	24a	.
.	.	24d#	.	24e	.	24b	.
.	.	24e	.	24d#	.	24cc#	.
8r	.	24f#	.	24c#	.	24dd#	.
.	.	24g#	.	24B	.	24ee	.
.	.	24a)	.	24G	.	24ff#)	.
*clefC4	*clefG2	*	*	*	*	*	*
=1114	=1114	=1114	=1114	=1114	=1114	=1114	=1114
(8e	.	8b	.	&(24G#&)	.	(24gg#	.
.	.	.	.	24gg#	.	24ee	.
.	.	.	.	24ff#	.	24ff#	.
8b)	.	[4E	.	24ee	.	24gg#	.
.	.	.	.	24dd#	.	24aa	.
.	.	.	.	24cc#	.	24bb	.
16g	.	.	.	24b	.	24ccc#	.
.	.	.	.	24a	.	24ddd#	.
16e	.	.	.	.	.	.	.
.	.	.	.	24g#	.	24eee	.
(16e	.	4.E_	.	24f#	.	24fff#	.
.	.	.	.	24g#	.	24eee	.
[16a)	.	.	.	.	.	.	.
.	.	.	.	24a	.	24ddd#	.
4a]	.	.	.	24b	.	24ccc#	.
.	.	.	.	24cc#	.	24bb	.
.	.	.	.	24dd#	.	24aa	.
.	.	.	.	24ee	.	24gg#	.
.	.	.	.	24ff#	.	24aa	.
.	.	.	.	&(24dd#&)	.	24ff#)	.
=1115	=1115	=1115	=1115	=1115	=1115	=1115	=1115
(8e	.	4.E_	.	24bb	.	(24gg#	.
.	.	.	.	24gg#	.	24ee	.
.	.	.	.	24ff#	.	24ff#	.
8b)	.	.	.	24ee	.	24gg#	.
.	.	.	.	24dd#	.	24aa	.
.	.	.	.	24cc#	.	24bb	.
16g#	.	.	.	24b	.	24ccc#	.
.	.	.	.	24a	.	24ddd#	.
16e	.	.	.	.	.	.	.
.	.	.	.	24g#	.	24eee	.
4.a	.	4.E]	.	24a	.	24ff#	.
.	.	.	.	24aa	.	24fff#	.
.	.	.	.	24a	.	24ff#	.
.	.	.	.	24aa	.	24fff#	.
.	.	.	.	24a	.	24ff#	.
.	.	.	.	24aa	.	24fff#	.
.	.	.	.	24a	.	24ff#	.
.	.	.	.	24aa	.	24fff#	.
.	.	.	.	&(24a&)	.	24ff#)	.
=1116	=1116	=1116	=1116	=1116	=1116	=1116	=1116
8a	.	8E-	.	8aa	.	(24fff#	.
.	.	.	.	.	.	24ff#	.
.	.	.	.	.	.	24fff#	.
8b-	.	8E-	.	8bb-	.	24gg	.
.	.	.	.	.	.	24ggg	.
.	.	.	.	.	.	24gg	.
8r	.	8r	.	8r	.	24ggg	.
.	.	.	.	.	.	24gg	.
.	.	.	.	.	.	24ggg)	.
8b	.	8E-	.	8bb	.	(24gg	.
.	.	.	.	.	.	24ggg	.
.	.	.	.	.	.	24gg	.
8cc	.	8E-	.	8ccc	.	24aaa-	.
.	.	.	.	.	.	24aa-	.
.	.	.	.	.	.	24aaa-	.
8r	.	8r	.	8r	.	24aa-	.
.	.	.	.	.	.	24aaa-	.
.	.	.	.	.	.	24aa-)	.
=1117	=1117	=1117	=1117	=1117	=1117	=1117	=1117
8dd-	.	8E-	.	8ff	.	(24aaa-	.
.	.	.	.	.	.	24aa-	.
.	.	.	.	.	.	24aaa-	.
8dd	.	8E-	.	8ff	.	24aa-	.
.	.	.	.	.	.	24aaa-	.
.	.	.	.	.	.	24aa-	.
8r	.	8r	.	8r	.	24aaa-	.
.	.	.	.	.	.	24aa-	.
.	.	.	.	.	.	24aaa-)	.
8dd	.	8E-	.	8ff	.	(24aa-	.
.	.	.	.	.	.	24aaa-	.
.	.	.	.	.	.	24aa-	.
8ee-	.	8E-	.	8b- 8gg	.	24ggg	.
.	.	.	.	.	.	24gg	.
.	.	.	.	.	.	24ggg	.
8r	.	8r	.	8r	.	24gg	.
.	.	.	.	.	.	24ggg	.
.	.	.	.	.	.	24gg)	.
=1118	=1118	=1118	=1118	=1118	=1118	=1118	=1118
*k[b-e-a-]	*k[b-e-a-]	*k[b-e-a-]	*k[b-e-a-]	*k[b-e-a-]	*k[b-e-a-]	*k[b-e-a-]	*k[b-e-a-]
(24g	pp	(8e-	pp	24B-	.	[4.ggg	pp
24e-	.	.	.	24b-	.	.	.
24f	.	.	.	24B-	.	.	.
24g	.	8b-)	.	24b-	.	.	.
24a-	.	.	.	24B-	.	.	.
24b-	.	.	.	24b-	.	.	.
24cc	.	16g	.	24B-	.	.	.
24dd	.	.	.	24b-	.	.	.
.	.	16e-	.	.	.	.	.
24ee-	.	.	.	24B-	.	.	.
24ff	.	(16B-	.	24b-	.	(8ggg]	.
24ee-	.	.	.	24B-	.	.	.
.	.	[16a-)	.	.	.	.	.
24dd	.	.	.	24b-	.	.	.
24cc	.	4a-]	.	24B-	.	4aaa-	.
24b-	.	.	.	24b-	.	.	.
24a-	.	.	.	24B-	.	.	.
24g	.	.	.	24b-	.	.	.
24a-	.	.	.	24B-	.	.	.
24f)	.	.	.	&(24b-&)	.	.	.
=1119	=1119	=1119	=1119	=1119	=1119	=1119	=1119
(24g	.	(8e-	.	24B-	.	4.ggg	.
24e-	.	.	.	24b-	.	.	.
24f	.	.	.	24B-	.	.	.
24g	.	8b-)	.	24b-	.	.	.
24a-	.	.	.	24B-	.	.	.
24b-	.	.	.	24b-	.	.	.
24cc	.	16g	.	24B-	.	.	.
24dd	.	.	.	24b-	.	.	.
.	.	16e-	.	.	.	.	.
24ee-	.	.	.	24B-	.	.	.
24ff	.	(16A	.	24cc	.	4fff	.
24ee-	.	.	.	24c	.	.	.
.	.	[16a)	.	.	.	.	.
24dd	.	.	.	24cc	.	.	.
24cc	.	4a]	.	24c	.	.	.
24b-	.	.	.	24cc	.	.	.
24a	.	.	.	24c	.	.	.
24g	.	.	.	24cc	.	24eee-	.
24f	.	.	.	24c	.	24fff	.
24e-)	.	.	.	&(24cc&)	.	24ggg)	.
=1120	=1120	=1120	=1120	=1120	=1120	=1120	=1120
24e-	.	(16B-	.	8G	.	(16gg	.
24ee-	.	.	.	.	.	.	.
.	.	16b-)	.	.	.	16ggg)	.
24e-	.	.	.	.	.	.	.
24ee-	.	(16B	.	8r	.	(16gg	.
24e-	.	.	.	.	.	.	.
.	.	16b)	.	.	.	16ggg)	.
24ee-	.	.	.	.	.	.	.
24e-	.	8r	.	16g	.	8r	.
24ee-	.	.	.	.	.	.	.
.	.	.	.	&(16gg&)	.	.	.
24e-	.	.	.	.	.	.	.
24ee-	.	(16B	.	8r	.	(16aa-	.
24e-	.	.	.	.	.	.	.
.	.	16b)	.	.	.	16aaa-)	.
24ee-	.	.	.	.	.	.	.
24e-	.	(16c	.	8r	.	(16aa-	.
24ee-	.	.	.	.	.	.	.
.	.	16cc)	.	.	.	16aaa-)	.
24e-	.	.	.	.	.	.	.
24ee-	.	8r	.	16a-	.	8r	.
24e-	.	.	.	.	.	.	.
.	.	.	.	&(16aa-&)	.	.	.
24ee-	.	.	.	.	.	.	.
=1121	=1121	=1121	=1121	=1121	=1121	=1121	=1121
24e-	.	(16A-	.	8r	.	(16ff	.
24ee-	.	.	.	.	.	.	.
.	.	16a-)	.	.	.	16fff)	.
24e-	.	.	.	.	.	.	.
24ee-	.	(16A	.	8r	.	(16ff#	.
24e-	.	.	.	.	.	.	.
.	.	16a)	.	.	.	16fff#)	.
24ee-	.	.	.	.	.	.	.
24e-	.	8r	.	16f#	.	8r	.
24ee-	.	.	.	.	.	.	.
.	.	.	.	&(16ff#&)	.	.	.
24e-	.	.	.	.	.	.	.
24ee-	.	(16A	.	8r	.	(16ff#	.
24e-	.	.	.	.	.	.	.
.	.	16a)	.	.	.	16fff#)	.
24ee-	.	.	.	.	.	.	.
24e-	.	(16B-	.	8r	.	(16gg	.
24ee-	.	.	.	.	.	.	.
.	.	16b-)	.	.	.	16ggg)	.
24e-	.	.	.	.	.	.	.
24ee-	.	8r	.	16g	.	8r	.
24e-	.	.	.	.	.	.	.
.	.	.	.	&(16gg&)	.	.	.
24ee-	.	.	.	.	.	.	.
*clefF4	*clefF4	*	*	*	*	*	*
=1122	=1122	=1122	=1122	=1122	=1122	=1122	=1122
(16BB-	.	(24E-	.	16g	.	(8ee-	.
.	.	24e-	.	.	.	.	.
16B-)	.	.	.	&(16gg&)	.	.	.
.	.	24E-	.	.	.	.	.
(16BB	.	24e-	.	16g	.	8eee-)	.
.	.	24E-	.	.	.	.	.
16B)	.	.	.	&(16gg&)	.	.	.
.	.	24e-	.	.	.	.	.
8r	.	24E-	.	8r	.	16bb-	.
.	.	24e-	.	.	.	.	.
.	.	.	.	.	.	16gg	.
.	.	24E-	.	.	.	.	.
(16BB	.	24e-	.	16g	.	(8e-	.
.	.	24E-	.	.	.	.	.
16B)	.	.	.	&(16gg&)	.	.	.
.	.	24e-	.	.	.	.	.
(16C	.	24E-	.	16a-	.	8ee-)	.
.	.	24e-	.	.	.	.	.
16c)	.	.	.	&(16aa-&)	.	.	.
.	.	24E-	.	.	.	.	.
8r	.	24e-	.	8r	.	16cc	.
.	.	24E-	.	.	.	.	.
.	.	.	.	.	.	16a-	.
.	.	24e-)	.	.	.	.	.
=1123	=1123	=1123	=1123	=1123	=1123	=1123	=1123
(16AA-	.	(24E-	.	16f	.	(8ee-	.
.	.	24e-	.	.	.	.	.
16A-)	.	.	.	&(16ff&)	.	.	.
.	.	24E-	.	.	.	.	.
(16AA	.	24e-	.	16f#	.	8eee-)	.
.	.	24E-	.	.	.	.	.
16A)	.	.	.	&(16ff#&)	.	.	.
.	.	24e-	.	.	.	.	.
8r	.	24E-	.	8r	.	16ccc	.
.	.	24e-	.	.	.	.	.
.	.	.	.	.	.	16ff#	.
.	.	24E-	.	.	.	.	.
(16AA	.	24e-	.	16f#	.	(8e-	.
.	.	24E-	.	.	.	.	.
16A)	.	.	.	&(16ff#&)	.	.	.
.	.	24e-	.	.	.	.	.
(16BB-	.	24E-	.	16g	.	8ee-)	.
.	.	24e-	.	.	.	.	.
16B-)	.	.	.	&(16gg&)	.	.	.
.	.	24E-	.	.	.	.	.
8r	.	24e-	.	8r	.	16b-	.
.	.	24E-	.	.	.	.	.
.	.	.	.	.	.	16g	.
.	.	24e-)	.	.	.	.	.
=1124	=1124	=1124	=1124	=1124	=1124	=1124	=1124
(16GG-	.	(24E-	.	8e-	.	(8ee-	.
.	.	24e-	.	.	.	.	.
16G-)	.	.	.	.	.	.	.
.	.	24E-	.	.	.	.	.
(16GG	.	24e-	.	&(8ee-&)	.	8eee-)	.
.	.	24E-	.	.	.	.	.
16G)	.	.	.	.	.	.	.
.	.	24e-	.	.	.	.	.
8r	.	24E-	.	16b	.	16bb	.
.	.	24e-	.	.	.	.	.
.	.	.	.	16g	.	16gg	.
.	.	24E-	.	.	.	.	.
(16GG	.	24e-	.	8r	.	(8e-	.
.	.	24E-	.	.	.	.	.
16G)	.	.	.	.	.	.	.
.	.	24e-	.	.	.	.	.
(16AA-	.	24E-	.	8ccc	.	8ee-)	.
.	.	24e-	.	.	.	.	.
16A-)	.	.	.	.	.	.	.
.	.	24E-	.	.	.	.	.
8r	.	24e-	.	16ee-	.	16cc	.
.	.	24E-	.	.	.	.	.
.	.	.	.	16cc	.	16a-	.
.	.	24e-)	.	.	.	.	.
=1125	=1125	=1125	=1125	=1125	=1125	=1125	=1125
(16FF	.	(24E-	.	8e-	.	(8ee-	.
.	.	24e-	.	.	.	.	.
16F)	.	.	.	.	.	.	.
.	.	24E-	.	.	.	.	.
(16FF#	.	24e-	.	&(8ee-&)	.	8eee-)	.
.	.	24E-	.	.	.	.	.
16F#)	.	.	.	.	.	.	.
.	.	24e-	.	.	.	.	.
8r	.	24E-	.	16cc	.	16ccc	.
.	.	24e-	.	.	.	.	.
.	.	.	.	16a	.	16aa	.
.	.	24E-	.	.	.	.	.
(16FF#	.	24e-	.	8e-	.	(8ee-	.
.	.	24E-	.	.	.	.	.
16F#)	.	.	.	.	.	.	.
.	.	24e-	.	.	.	.	.
(16GG	.	24E-	.	&(8ee-&)	.	8eee-)	.
.	.	24e-	.	.	.	.	.
16G)	.	.	.	.	.	.	.
.	.	24E-	.	.	.	.	.
24EE-	.	24e-	.	16b-	.	16gg	.
24EE-	.	24E-	.	.	.	.	.
.	.	.	.	16B- 16g	.	16ggg	.
24EE-	.	24e-)	.	.	.	.	.
=1126	=1126	=1126	=1126	=1126	=1126	=1126	=1126
24EE-	ff	(24g	ff	24b-	ff	(8eee-	ff
24EE-	.	24e-	.	24g	.	.	.
24EE-	.	24f	.	24a-	.	.	.
24EE-	.	24g	.	24b-	.	8bbb-)	.
24EE-	.	24a-	.	24cc	.	.	.
24EE-	.	24b-	.	24dd	.	.	.
24EE-	.	24cc	.	24ee-	.	16ggg	.
24EE-	.	24dd	.	24ff	.	.	.
.	.	.	.	.	.	16eee-	.
24EE-	.	24ee-	.	24gg	.	.	.
24EE-	.	24dd	.	24ff	.	4.aaa-	.
24EE-	.	24cc	.	24ee-	.	.	.
24EE-	.	24b-	.	24dd	.	.	.
24EE-	.	24a-	.	24cc	.	.	.
24EE-	.	24g	.	24b-	.	.	.
24EE-	.	24f	.	24a-	.	.	.
24EE-	.	24e-	.	24g	.	.	.
24EE-	.	24f	.	24a-	.	.	.
24EE-	.	24d)	.	&(24f&)	.	.	.
=1127	=1127	=1127	=1127	=1127	=1127	=1127	=1127
24EE-	.	(24B-	.	24g	.	(8eee-	.
24EE-	.	24G	.	24e-	.	.	.
24EE-	.	24A-	.	24f	.	.	.
24EE-	.	24B-	.	24g	.	8bbb-)	.
24EE-	.	24c	.	24a-	.	.	.
24EE-	.	24d	.	24b-	.	.	.
24EE-	.	24e-	.	24cc	.	16ggg	.
24EE-	.	24f	.	24dd	.	.	.
.	.	.	.	.	.	16eee-	.
24EE-	.	24g)	.	&(24ee-&)	.	.	.
24EE-	.	24cc	.	24g-	.	4.aaa	.
24EE-	.	24cc	.	24g-	.	.	.
24EE-	.	24cc	.	24g-	.	.	.
24EE-	.	24cc	.	24g-	.	.	.
24EE-	.	24cc	.	24g-	.	.	.
24EE-	.	24cc	.	24g-	.	.	.
24EE-	.	24cc	.	24g-	.	.	.
24EE-	.	24cc	.	24g-	.	.	.
24EE-	.	24cc	.	24g-	.	.	.
=1128	=1128	=1128	=1128	=1128	=1128	=1128	=1128
24EE-	.	24B- 24a-	.	24f	.	(8bbb-	.
24EE-	.	24B- 24a-	.	24f	.	.	.
24EE-	.	24B- 24a-	.	24f	.	.	.
24EE-	.	24B- 24a-	.	24f	.	8cccc)	.
24EE-	.	24B- 24a-	.	24f	.	.	.
24EE-	.	24B- 24a-	.	24f	.	.	.
24EE-	.	24B- 24a-	.	24f	.	16aaa-	.
24EE-	.	24B- 24a-	.	24f	.	.	.
.	.	.	.	.	.	16fff	.
24EE-	.	24B- 24a-	.	24f	.	.	.
24EE-	.	24B- 24f	.	24a-	.	(8eee-	.
24EE-	.	24B- 24f	.	24a-	.	.	.
24EE-	.	24B- 24f	.	24a-	.	.	.
24EE-	.	24B- 24f	.	24a-	.	8ddd)	.
24EE-	.	24B- 24f	.	24a-	.	.	.
24EE-	.	24B- 24f	.	24a-	.	.	.
24EE-	.	24B- 24f	.	24a-	.	16ccc	.
24EE-	.	24B- 24f	.	24a-	.	.	.
.	.	.	.	.	.	16bb-	.
24EE-	.	24B- 24f	.	24a-	.	.	.
=1129	=1129	=1129	=1129	=1129	=1129	=1129	=1129
24EE-	.	24B- 24f	.	24A- 24a-	.	(8ccc	.
24EE-	.	24B- 24f	.	24A- 24a-	.	.	.
24EE-	.	24B- 24f	.	24A- 24a-	.	.	.
24EE-	.	24B- 24f	.	24A- 24a-	.	8ddd)	.
24EE-	.	24B- 24f	.	24A- 24a-	.	.	.
24EE-	.	24B- 24f	.	24A- 24a-	.	.	.
24EE-	.	24B- 24f	.	24A- 24a-	.	16eee-	.
24EE-	.	24B- 24f	.	24A- 24a-	.	.	.
.	.	.	.	.	.	16fff	.
24EE-	.	24B- 24f	.	24A- 24a-	.	.	.
24EE-	.	24B- 24f	.	24A- 24a-	.	(8ggg	.
24EE-	.	24B- 24f	.	24A- 24a-	.	.	.
24EE-	.	24B- 24f	.	24A- 24a-	.	.	.
24EE-	.	24B- 24f	.	24A- 24a-	.	8aaa-)	.
24EE-	.	24B- 24f	.	24A- 24a-	.	.	.
24EE-	.	24B- 24f	.	24A- 24a-	.	.	.
24EE-	.	24B- 24f	.	24A- 24a-	.	8fff	.
24EE-	.	24B- 24f	.	24A- 24a-	.	.	.
24EE-	.	24B- 24f	.	24A- 24a-	.	.	.
=1130	=1130	=1130	=1130	=1130	=1130	=1130	=1130
24EE-	p	(24B- 24e-	p	24G 24g	p	(8e-	p
24e-	.	24E-	.	24G	.	.	.
24e-	.	24F	.	24A-	.	.	.
24e-	.	24G	.	24B-	.	8b-)	.
24e-	.	24A-	.	24c	.	.	.
24e-	.	24B-	.	24d	.	.	.
24e-	.	24c	.	24e-	.	16g	.
24e-	.	24d	.	24f	.	.	.
.	.	.	.	.	.	16e-	.
24e-	.	24e-	.	24g	.	.	.
(24e-	.	24f	.	24a-	.	(16B-	.
24d	.	24g	.	24b-	.	.	.
.	.	.	.	.	.	[16a-)	.
24c	.	24a-	.	24cc	.	.	.
24B-	.	24b-	.	24dd	.	4a-]	.
24A-	.	24cc	.	24ee-	.	.	.
24G	.	24dd	.	24ff	.	.	.
24F	.	24ee-	.	24gg	.	.	.
24E-	.	24ff	.	24aa-	.	.	.
24F	.	24dd	.	24ff	.	.	.
=1131	=1131	=1131	=1131	=1131	=1131	=1131	=1131
24G)	.	24b-)	.	&(24bb-&)	.	(8e-	.
24EE-	.	(24G	.	24g	.	.	.
24FF	.	24A-	.	24a-	.	.	.
24GG	.	24B-	.	24b-	.	8b-)	.
24AA-	.	24c	.	24cc	.	.	.
24BB-	.	24d	.	24dd	.	.	.
24C	.	24e-	.	24ee-	.	16g	.
24D	.	24f	.	24ff	.	.	.
.	.	.	.	.	.	16e-	.
24E-	.	24g	.	24gg	.	.	.
24FF	.	24e-	.	24gg	.	(16a	.
24FF	.	24cc	.	24ee-	.	.	.
.	.	.	.	.	.	[16aa)	.
24FF	.	24b-	.	24dd	.	.	.
24FF	.	24a	.	24cc	.	4aa]	.
24FF	.	24g	.	24b-	.	.	.
24FF	.	24f	.	24a	.	.	.
24FF	.	24e-	.	24g	.	.	.
24FF	.	24d	.	24f	.	.	.
24FF	.	24c)	.	&(24e-&)	.	.	.
=1132	=1132	=1132	=1132	=1132	=1132	=1132	=1132
24FF	.	24B-	.	24A- 24d	.	(16b-	.
24FF	.	24B-	.	24A- 24d	.	.	.
.	.	.	.	.	.	16bb-)	.
24FF	.	24B-	.	24A- 24d	.	.	.
24FF	.	24B-	.	24A- 24d	.	(16cc	.
24FF	.	24B-	.	24A- 24d	.	.	.
.	.	.	.	.	.	16ccc)	.
24FF	.	24B-	.	24A- 24d	.	.	.
24FF	.	24B-	.	24A- 24d	.	16aa-	.
24FF	.	24B-	.	24A- 24d	.	.	.
.	.	.	.	.	.	16ff	.
24FF	.	24B-	.	24A- 24d	.	.	.
24FF	.	24B-	.	24A- 24d	.	(16ee-	.
24FF	.	24B-	.	24A- 24d	.	.	.
.	.	.	.	.	.	16eee-)	.
24FF	.	24B-	.	24A- 24d	.	.	.
24FF	.	24B-	.	24A- 24d	.	(16dd	.
24FF	.	24B-	.	24A- 24d	.	.	.
.	.	.	.	.	.	16ddd)	.
24FF	.	24B-	.	24A- 24d	.	.	.
24FF	.	24B-	.	24A- 24d	.	16ccc	.
24FF	.	24B-	.	24A- 24d	.	.	.
.	.	.	.	.	.	16bb-	.
24FF	.	24B-	.	24A- 24d	.	.	.
=1133	=1133	=1133	=1133	=1133	=1133	=1133	=1133
24FF	.	24B-	.	24A- 24d	.	(16cc	.
24FF	.	24B-	.	24A- 24d	.	.	.
.	.	.	.	.	.	16ccc)	.
24FF	.	24B-	.	24A- 24d	.	.	.
24FF	.	24B-	.	24A- 24d	.	(16dd	.
24FF	.	24B-	.	24A- 24d	.	.	.
.	.	.	.	.	.	16ddd)	.
24FF	.	24B-	.	24A- 24d	.	.	.
24FF	.	24B-	.	24A- 24d	.	16eee-	.
24FF	.	24B-	.	24A- 24d	.	.	.
.	.	.	.	.	.	16fff	.
24FF	.	24B-	.	24A- 24d	.	.	.
24FF	f	24B-	f	24A- 24d	f	(16gg	f
24FF	.	24B-	.	24A- 24d	.	.	.
.	.	.	.	.	.	16ggg)	.
24FF	.	24B-	.	24A- 24d	.	.	.
24FF	.	24B-	.	24A- 24d	.	(16aa-	.
24FF	.	24B-	.	24A- 24d	.	.	.
.	.	.	.	.	.	16aaa-)	.
24FF	.	24B-	.	24A- 24d	.	.	.
24FF	.	24B-	.	24A- 24d	.	(16ff	.
24FF	.	24B-	.	24A- 24d	.	.	.
.	.	.	.	.	.	16fff)	.
24FF	.	24B-	.	24A- 24d	.	.	.
=1134	=1134	=1134	=1134	=1134	=1134	=1134	=1134
8GG	p	8B-	p	8bb-	p	8eee-	p
8AA-	.	8A-	.	&(8ccc&)	.	8eee-	.
8r	.	8r	.	16aa-	.	8r	.
.	.	.	.	16ff	.	.	.
8BB-	.	8b-	.	8ee-	.	8ggg	.
8B-	.	8b-	.	&(8ff&)	.	8aaa-	.
8r	.	8r	.	16dd	.	8r	.
.	.	.	.	16b-	.	.	.
=1135	=1135	=1135	=1135	=1135	=1135	=1135	=1135
8G	.	(8b-	.	8ee-	.	2.r	.
8A-	.	8cc)	.	8ee-	.	.	.
8r	.	16a-	.	8r	.	.	.
.	.	16f	.	.	.	.	.
8B-	.	(8e-	.	8gg	.	.	.
8B-	.	8f)	.	8aa-	.	.	.
8r	.	16d	.	8r	.	.	.
.	.	16B-	.	.	.	.	.
=1136	=1136	=1136	=1136	=1136	=1136	=1136	=1136
(8B-	.	8b-	.	8b-	.	4r	.
8c)	.	8b-	.	&(8cc&)	.	.	.
16A-	.	8r	.	16a-	.	8r	.
16F	.	.	.	16f	.	.	.
(8E-	.	8b-	.	8g	.	(8gg	.
8F)	.	8b-	.	&(8a-&)	.	8aa-)	.
16D	.	8r	.	16f	.	16ff	.
16BB-	.	.	.	16d	.	16dd	.
=1137	=1137	=1137	=1137	=1137	=1137	=1137	=1137
(8GG	.	(8b-	.	8ee-	.	(8bb-	.
8AA-)	.	8cc)	.	8ee-	.	8ccc)	.
16FF	.	16a-	.	16ee-	.	16aa-	.
16BB-	.	16f	.	16dd	.	16ff	.
(8BB	.	(8g	.	8gg	.	(8eee-	.
8BB-)	.	8a-)	.	&(8aa-&)	.	8fff)	.
16BB-	.	16f	.	16ff	.	16bb-	.
16BB-	.	16A- 16f	.	16dd	.	16ddd	.
=1138	=1138	=1138	=1138	=1138	=1138	=1138	=1138
24E-	ff	24G	ff	24B-	ff	24eee-	ff
24E-	.	24G	.	24B-	.	24ddd	.
24E-	.	24G	.	24B-	.	24ccc	.
24E-	.	24G	.	24B-	.	24bb-	.
24E-	.	24G	.	24B-	.	24aa-	.
24E-	.	24G	.	24B-	.	24gg	.
24E-	.	24A-	.	24c	.	24ccc	.
24E-	.	24A-	.	24c	.	24bb-	.
24E-	.	24A-	.	24c	.	24aa-	.
24E-	.	24A-	.	24c	.	24gg	.
24E-	.	24A-	.	24c	.	24ff	.
24E-	.	24A-	.	24c	.	24ee-	.
24E-	.	24F	.	24d	.	24dd	.
24E-	.	24F	.	24d	.	24cc	.
24E-	.	24F	.	24d	.	24b-	.
24E-	.	24F	.	24d	.	24cc	.
24E-	.	24F	.	24d	.	24dd	.
24E-	.	24F	.	24d	.	24b-	.
=1139	=1139	=1139	=1139	=1139	=1139	=1139	=1139
24e-	.	24e-	.	24ee-	.	24ee-	.
24d	.	24d	.	24dd	.	24dd	.
24c	.	24c	.	24cc	.	24cc	.
24B-	.	24b-	.	24b-	.	24b-	.
24A-	.	24a-	.	24a-	.	24a-	.
24G	.	24g	.	24g	.	24g	.
24c	.	24cc	.	24cc	.	24cc	.
24B-	.	24b-	.	24b-	.	24b-	.
24A-	.	24a-	.	24a-	.	24a-	.
24G	.	24g	.	24g	.	24g	.
24F	.	24f	.	24f	.	24f	.
24E-	.	24e-	.	24e-	.	24e-	.
24D	.	24d	.	24d	.	24d	.
24C	.	24c	.	24c	.	24c	.
24BB-	.	24B-	.	24B-	.	24B-	.
24C	.	24c	.	24c	.	24c	.
24D	.	24d	.	24d	.	24d	.
24BB-	.	24B-	.	24B-	.	24B-	.
=1140	=1140	=1140	=1140	=1140	=1140	=1140	=1140
8E-	.	8e-	.	8e-	.	8e-	.
8e-	.	8E- 8G	.	8G 8e- 8ee-	.	8G 8e- 8ee-	.
8r	.	8r	.	8r	.	8r	.
8r	.	8r	.	8r	.	8r	.
8B-	.	8B- 8d	.	8d 8b- 8ff	.	8d 8b- 8ff	.
8r	.	8r	.	8r	.	8r	.
=1141	=1141	=1141	=1141	=1141	=1141	=1141	=1141
8r	.	8r	.	8r	.	8r	.
8E-	.	8e-	.	8e- 8b- 8gg	.	8e- 8b- 8gg	.
8r	.	8r	.	8r	.	8r	.
8r	.	8r	.	8r	.	8r	.
8BB-	.	8B-	.	8d 8b- 8ff	.	8b- 8bb-	.
8r	.	8r	.	8r	.	8r	.
=1142	=1142	=1142	=1142	=1142	=1142	=1142	=1142
2.r	.	(24g	pp	24ee-	pp	(24b-	pp
.	.	24a-	.	24ff	.	24cc	.
.	.	24g)	.	24ee-	.	24b-	.
.	.	24a-	.	24dd	.	24cc-	.
.	.	24a-	.	24ee-	.	24cc	.
.	.	24a-	.	24dd	.	24cc-	.
.	.	(24g	.	24ee-	.	24b-	.
.	.	24a-	.	24ff	.	24cc	.
.	.	24g)	.	&(24ee-&)	.	24b-)	.
.	.	(24g	.	24ee-	.	(24b-	.
.	.	24a-	.	24ff	.	24cc-	.
.	.	24g)	.	24ee-	.	24b-	.
.	.	24a-	.	24dd	.	24cc-	.
.	.	24a-	.	24ee-	.	24cc	.
.	.	24a-	.	24dd	.	24cc-	.
.	.	8g	.	&(8ee-&)	.	8b-)	.
=1143	=1143	=1143	=1143	=1143	=1143	=1143	=1143
(8EE-	pp	24B- 24g	.	24ee-	.	(24b-	.
.	.	24B- 24g	.	24g 24b-	.	24cc	.
.	.	24B- 24g	.	24g 24b-	.	24dd	.
8BB-)	.	24B- 24g	.	24g 24b-	.	24ee-	.
.	.	24B- 24g	.	24g 24b-	.	24ff	.
.	.	24B- 24g	.	24g 24b-	.	24gg	.
16GG	.	24B- 24g	.	24g 24b-	.	24aa-	.
.	.	24B- 24g	.	24g 24b-	.	24bb-	.
16EE-	.	.	.	.	.	.	.
.	.	24B- 24g	.	24g 24b-	.	24ccc)	.
4.AA-	.	(8B-	.	24ff	.	4.ddd	.
.	.	.	.	24ee-	.	.	.
.	.	.	.	24dd	.	.	.
.	.	8f)	.	24cc	.	.	.
.	.	.	.	24b-	.	.	.
.	.	.	.	24a-	.	.	.
.	.	16d	.	24g	.	.	.
.	.	.	.	24a-	.	.	.
.	.	16B-	.	.	.	.	.
.	.	.	.	&(24f&)	.	.	.
=1144	=1144	=1144	=1144	=1144	=1144	=1144	=1144
2.r	.	(24g	.	24ee-	.	(24b-	.
.	.	24a-	.	24ff	.	24cc	.
.	.	24g)	.	24ee-	.	24b-	.
.	.	24a-	.	24dd	.	24cc-	.
.	.	24a-	.	24ee-	.	24cc	.
.	.	24a-	.	24dd	.	24cc-	.
.	.	(24g	.	24ee-	.	24b-	.
.	.	24a-	.	24ff	.	24cc	.
.	.	24g)	.	&(24ee-&)	.	24b-)	.
.	.	(24g	.	24ee-	.	(24b-	.
.	.	24a-	.	24ff	.	24cc-	.
.	.	24g)	.	24ee-	.	24b-	.
.	.	24a-	.	24dd	.	24cc-	.
.	.	24a-	.	24ee-	.	24cc	.
.	.	24a-	.	24dd	.	24cc-	.
.	.	8g	.	&(8ee-&)	.	8b-)	.
=1145	=1145	=1145	=1145	=1145	=1145	=1145	=1145
(24E-	pp	24g	pp	24ee-	pp	(8ee-	.
24F	.	24g	.	24b-	.	.	.
24G	.	24g	.	24b-	.	.	.
24A-	.	24g	.	24b-	.	8bb-)	.
24B-	.	24g	.	24b-	.	.	.
24c	.	24g	.	24b-	.	.	.
24d	.	24g	.	24b-	.	16gg	.
24e-)	.	24g	.	24b-	.	.	.
.	.	.	.	.	.	16ee-	.
24e-	.	24g	.	24b-	.	.	.
24e-	.	24g-	.	24b-	.	(4.aa	.
24e-	.	24g-	.	24b-	.	.	.
24e-	.	24g-	.	24b-	.	.	.
24e-	.	24g-	.	24b-	.	.	.
24e-	.	24g-	.	24b-	.	.	.
24e-	.	24g-	.	24b-	.	.	.
24e-	.	24g-	.	24b-	.	.	.
24e-	.	24g-	.	24b-	.	.	.
24e-	.	24g-	.	24b-	.	.	.
=1146	=1146	=1146	=1146	=1146	=1146	=1146	=1146
24e-	.	24g	.	24b-	.	4bb-)	.
24e-	.	24g	.	24b-	.	.	.
24e-	.	24g	.	24b-	.	.	.
24e-	.	24g	.	24b-	.	.	.
24e-	.	24g	.	24b-	.	.	.
24e-	.	24g	.	24b-	.	.	.
24e-	.	24g	.	24b-	.	8r	.
24e-	.	24g	.	24b-	.	.	.
24e-	.	24g	.	24b-	.	.	.
24e-	.	24g-	.	24b-	.	4.aa	.
24e-	.	24g-	.	24b-	.	.	.
24e-	.	24g-	.	24b-	.	.	.
24e-	.	24g-	.	24b-	.	.	.
24e-	.	24g-	.	24b-	.	.	.
24e-	.	24g-	.	24b-	.	.	.
24e-	.	24g-	.	24b-	.	.	.
24e-	.	24g-	.	24b-	.	.	.
24e-	.	24g-	.	24b-	.	.	.
=1147	=1147	=1147	=1147	=1147	=1147	=1147	=1147
4BB-	f	4B-	f	4b-	f	4bb-	f
8r	.	8r	.	8r	.	8r	.
4B-	ff	4B- 4f 4dd	ff	4b- 4ff	ff	4b- 4ff 4ddd	ff
8r	.	8r	.	8r	.	8r	.
=1148	=1148	=1148	=1148	=1148	=1148	=1148	=1148
4EE-	.	4G 4e- 4ee-	.	4b- 4gg	.	4b- 4gg 4eee-	.
8r	.	8r	.	8r	.	8r	.
4r	.	4r	.	4r	.	4r	.
8r	.	8r	.	8r	.	8r	.
==	==	==	==	==	==	==	==
*-	*-	*-	*-	*-	*-	*-	*-
!!!ENC: Craig Stuart Sapp
!!!END: 2004/09/06/
!!!RWG: No grace notes; no articulations
